!!!!SEGMENT: pl-wtm--r-1140-1--004_dobrzynski-ignacy-feliks--quartetto-op-7-finale.krn
!!!cenid: 18xx:1811
!!!COM: Dobrzyński, Ignacy Feliks
!!!COM-rismid: pe30020642
!!!CDT: 1807/02/15-1867/10/09
!!!CNT: Polish
!!!OPR: Quartetto op. 7
!!!OTL: Finale
!!!OMV: 004
!!!PDT:
!!!AGN: Secular; String quartet
!!!SMS-siglum: PL-Wtm
!!!SMS-shelfmark: R 1140/1
!!!SMS-shelfwork: 001-004 M
!!!SMS-variant:
!!!SMS-altvar:
!!!NIFC-rismid: 1001056519
!!!URL-scan: http://repozytorium.nifc.pl/skany/pl-wtm-nut--r1140-1
!!!ONB-nifc: UWAGA: części Kwartetu: 1. Allegro espressivo, 2. Scherzo, 3. Adagio, 4. Finale
!!!OMD: Presto Finale
**kern	**dynam	**kern	**dynam	**kern	**dynam	**kern	**dynam
*	*	*	*	*group1	*group1	*group1	*group1
*part4	*part4	*part3	*part3	*part2	*part2	*part1	*part1
*	*	*	*	*	*	*I""Violini	*
*staff4	*	*staff3	*	*staff2	*	*staff1	*
*Icello	*	*Iviola	*	*Iempty	*	*Iempty	*
*I"Violoncello.	*	*I"Viola	*	*	*	*	*
*I'vc	*	*I'vla	*	*	*	*I'vl	*
*clefF4	*	*clefC3	*	*clefG2	*	*clefG2	*
*k[f#]	*	*k[f#]	*	*k[f#]	*	*k[f#]	*
*e:	*	*e:	*	*e:	*	*e:	*
*M2/4	*	*M2/4	*	*M2/4	*	*M2/4	*
*>[A,A1,A,A2,B]	*	*>[A,A1,A,A2,B]	*	*>[A,A1,A,A2,B]	*	*>[A,A1,A,A2,B]	*
=1	=1	=1	=1	=1	=1	=1	=1
*Xtuplet	*	*Xtuplet	*	*Xtuplet	*	*Xtuplet	*
!	!	!LO:TX:t=P:problem:t. 1-2 jako repetycje 1 skrzypiec	!	!LO:TX:t=P:problem:t. 1-5 jako repetycje 1 skrzypiec	!	!LO:TX:t=P:problem:wszystkie "3" ukryte	!
!	!	!LO:TX:b:t=Col 1mo Unisono.:problem:zapisane na pięciolinii, zamiast nut	!	!LO:TX:b:t=Col 1o Unisono.:problem:zapisane na pięciolinii, zamiast nut	!	!	!
12E\L	.	12e\Lyy	.	12e/Lyy	.	12e/L	.
12D#X\	.	12d#X\yy	.	12d#X/yy	.	12d#X/	.
12E\J	.	12e\Jyy	.	12e/Jyy	.	12e/J	.
12G\L	.	12g\Lyy	.	12g/Lyy	.	12g/L	.
12F#\	.	12f#\yy	.	12f#/yy	.	12f#/	.
12E\J	.	12e\Jyy	.	12e/Jyy	.	12e/J	.
=2	=2	=2	=2	=2	=2	=2	=2
4B\	.	4b\yy	.	4b/yy	.	4b/	.
4r	.	4ryy	.	4ryy	.	4r	.
=3	=3	=3	=3	=3	=3	=3	=3
*	*	*rscale:2	*	*	*	*	*
12E\L	.	12e\	.	12e/Lyy	.	12e/L	.
12D#X\	.	12d#X\	.	12d#X/yy	.	12d#X/	.
12E\J	.	12e\	.	12e/Jyy	.	12e/J	.
12G\L	.	12g\	.	12g/Lyy	.	12g/L	.
12F#\	.	12f#\	.	12f#/yy	.	12f#/	.
12E\J	.	12e\	.	12e/Jyy	.	12e/J	.
*	*	*rscale:1	*	*	*	*	*
=4	=4	=4	=4	=4	=4	=4	=4
4BB/	.	4B\	.	4B/yy	.	4B/	.
4r	.	4r	.	4ryy	.	4r	.
=5	=5	=5	=5	=5	=5	=5	=5
*	*	*rscale:2	*	*	*	*	*
12E\L	.	12e\	.	12e/Lyy	.	12e/L	.
12D#X\	.	12d#X\	.	12d#X/yy	.	12d#X/	.
12E\J	.	12e\	.	12e/Jyy	.	12e/J	.
12G\L	.	12g\	.	12g/Lyy	.	12g/L	.
12F#\	.	12f#\	.	12f#/yy	.	12f#/	.
12E\J	.	12e\	.	12e/Jyy	.	12e/J	.
*	*	*rscale:1	*	*	*	*	*
=6	=6	=6	=6	=6	=6	=6	=6
[2F#\	.	4f#\	.	4f#/	.	12f#/L	.
.	.	.	.	.	.	12b/	.
.	.	.	.	.	.	12dd/J	.
!	!	!LO:TX:b:t=poco riten:dur=3q:ext=ud:problem:tekst with extention lines	!LO:HP:a	!LO:TX:b:t=poco riten:dur=3q:ext=ud:problem:tekst with extention lines	!LO:HP:a	!LO:TX:b:t=poco riten:dur=3q:ext=ud:problem:tekst with extention lines	!
.	.	4d\	<	[4b\	<	(12ff#\L	.
.	.	.	.	.	.	12ff#'\	.
.	.	.	.	.	.	12ff#'\J	.
=7	=7	=7	=7	=7	=7	=7	=7
2F#\_	.	4c#X\	[	4b\]	[	12ff#'\L	.
!	!	!	!LO:HP:a	!	!LO:HP:a	!	!
.	.	.	>	.	>	12ff#'\	.
.	.	.	.	.	.	12ff#'\J	.
.	.	4e\	.	4a#X\	.	(12ff#\L	.
.	.	.	.	.	.	12cc#X\	.
.	.	.	]	.	]	12dd\J))	.
=8	=8	=8	=8	=8	=8	=8	=8
4.BB;\ 4.F#]	.	4.d;\	p	4.b;\	p	(4b;\	p
.	.	.	.	.	.	8bb'\)	.
8r;	.	8r;	.	8r;	.	8r;	.
=9	=9	=9	=9	=9	=9	=9	=9
!	!	!	!	!	!	!LO:TX:b:t=a tempo	!
4r	p	2r	.	2r	.	12e/L	p
.	.	.	.	.	.	12d#X/	.
.	.	.	.	.	.	12e/J	.
[>4E^<\	.	.	.	.	.	12g/L	.
.	.	.	.	.	.	12f#/	.
.	.	.	.	.	.	12e/J	.
=10	=10	=10	=10	=10	=10	=10	=10
12E\L]	.	2r	.	(2f#/	.	2b\	.
12D#X\	.	.	.	.	.	.	.
12C#X\J	.	.	.	.	.	.	.
12D#\L	.	.	.	.	.	.	.
12C#\	.	.	.	.	.	.	.
12BB\J	.	.	.	.	.	.	.
=11	=11	=11	=11	=11	=11	=11	=11
8Cn/	.	2r	.	4e/)	.	12c/L	.
.	.	.	.	.	.	12B/	.
8r	.	.	.	.	.	.	.
.	.	.	.	.	.	12c/J	.
[4C^>/	.	.	.	4r	.	12e/L	.
.	.	.	.	.	.	12d/	.
.	.	.	.	.	.	12c/J	.
=12	=12	=12	=12	=12	=12	=12	=12
12C/L]	.	2r	.	2d/	.	2g/	.
12BB/	.	.	.	.	.	.	.
12AA/J	.	.	.	.	.	.	.
12BB/L	.	.	.	.	.	.	.
12AA/	.	.	.	.	.	.	.
12GG/J	.	.	.	.	.	.	.
!!LO:PB:g=original
=13	=13	=13	=13	=13	=13	=13	=13
!LO:TX:a:t=cres-:problem:dynamics with extention lines	!LO:HP:a:i:t=cres:ext=cd	!	!	!LO:TX:b:t=cres-:problem:dynamics with extention lines	!LO:HP:i:t=cres:ext=cd	!LO:TX:b:t=cres-:problem:dynamics with extention lines	!LO:HP:i:t=cres:ext=cd
(>2C/	<	2r	.	(>4c/	<	(>12e/L	<
.	.	.	.	.	.	12d#X/	.
.	.	.	.	.	.	12e/J	.
.	.	.	.	[4e/	.	12g/L	.
.	.	.	.	.	.	12f#/	.
.	.	.	.	.	.	12g/J)	.
=14	=14	=14	=14	=14	=14	=14	=14
2BB/)	.	(>4r	.	4e/]	.	(12g#X/L	.
.	.	.	.	.	.	12f##X/	.
.	.	.	.	.	.	12g#/J	.
.	.	4G#X/	.	4d/)	.	12ee\L	.
.	.	.	.	.	.	12dd#X\	.
.	.	.	.	.	.	12ee\J)	.
=15	=15	=15	=15	=15	=15	=15	=15
(>2AA/	.	2A/)	.	(>4c/	.	(12aa\L	.
.	.	.	.	.	.	12gg#X\	.
.	.	.	.	.	.	12aa\J	.
.	.	.	.	4a/)	.	12ccc\L	.
.	.	.	.	.	.	12bb\	.
.	.	.	.	.	.	12ccc\J)	.
=16	=16	=16	=16	=16	=16	=16	=16
2GG/)	[[	2c\	.	2g/ 2b-X	[[	(12eee\L	.
.	.	.	.	.	.	12ddd\	.
.	.	.	.	.	.	12eee\J	.
.	.	.	.	.	.	12ccc\L	.
.	.	.	.	.	.	12ddd\	.
.	.	.	.	.	.	12eee\J)	[[
=17	=17	=17	=17	=17	=17	=17	=17
!	!LO:DY:a	!	!	!	!	!	!
4FFn/	ff	[2c\	.	[2fn/ [2a	ff	[2fffn\	ff
*tuplet	*	*	*	*	*	*	*
!LO:TUP:problem:klamra łukowa	!	!	!	!	!	!	!
12FF/L	.	.	.	.	.	.	.
12EE/	.	.	.	.	.	.	.
12FF/J	.	.	.	.	.	.	.
*Xtuplet	*	*	*	*	*	*	*
=18	=18	=18	=18	=18	=18	=18	=18
!LO:TUP:problem:klamra łukowa	!	!	!	!	!	!	!
12AA/L	.	2c\_	.	2f/_ 2a_	.	2fff\_	.
12GG#X/	.	.	.	.	.	.	.
12AA/J	.	.	.	.	.	.	.
!LO:TUP:problem:klamra łukowa	!	!	!	!	!	!	!
12C/L	.	.	.	.	.	.	.
12BB/	.	.	.	.	.	.	.
12C/J	.	.	.	.	.	.	.
=19	=19	=19	=19	=19	=19	=19	=19
[2Fn\	.	2c\_	.	2f/_ 2a_	.	12fff\L]	.
.	.	.	.	.	.	(12eee\	.
.	.	.	.	.	.	12fffn\J	.
.	.	.	.	.	.	12ccc\L	.
.	.	.	.	.	.	12bb\	.
.	.	.	.	.	.	12ccc\J	.
=20	=20	=20	=20	=20	=20	=20	=20
2F\]	.	2c\]	.	2f/_ 2a_	.	12aa\L	.
.	.	.	.	.	.	12gg#X\	.
.	.	.	.	.	.	12aa\J	.
.	.	.	.	.	.	12ffn\L	.
.	.	.	.	.	.	12ee\	.
.	.	.	.	.	.	12ff\J)	.
=21	=21	=21	=21	=21	=21	=21	=21
!	!	!	!LO:DY:t=sempre ff	!	!LO:DY:t=sempre ff	!	!LO:DY:t=sempre ff
[2FFn/	.	2A/	ff	12f/L] 12a]	ff	2cc\	ff
.	.	.	.	12e/	.	.	.
.	.	.	.	12fn/J	.	.	.
.	.	.	.	12a/L	.	.	.
.	.	.	.	12g/	.	.	.
.	.	.	.	12f/J	.	.	.
=22	=22	=22	=22	=22	=22	=22	=22
4FF/]	.	[2c\	.	[2a/	.	[2aa\	.
4EE/	.	.	.	.	.	.	.
=23	=23	=23	=23	=23	=23	=23	=23
2DD#X/	.	2c\_	.	2a/_	.	12aa\L]	.
.	.	.	.	.	.	(12gg#X\	.
.	.	.	.	.	.	12aa\J	.
.	.	.	.	.	.	12ccc\L	.
.	.	.	.	.	.	12bb\	.
.	.	.	.	.	.	12aa\J	.
=24	=24	=24	=24	=24	=24	=24	=24
2D#X\	.	12c\L]	.	2a/_	.	[2fff#X\	.
.	.	12B\	.	.	.	.	.
.	.	12A\J	.	.	.	.	.
.	.	12c\L	.	.	.	.	.
.	.	12B\	.	.	.	.	.
.	.	12A\J	.	.	.	.	.
=25	=25	=25	=25	=25	=25	=25	=25
([2E\	.	[2B\	.	4a/]	.	12fff#\L])	.
.	.	.	.	.	.	(12eee\	.
.	.	.	.	.	.	12ddd#X\J	.
.	.	.	.	8g#X/L	.	[4eee\	.
.	.	.	.	8f#/J	.	.	.
=26	=26	=26	=26	=26	=26	=26	=26
12E\L]	.	2B\]	.	2g#X/	.	2eee\_	.
12Fn\	.	.	.	.	.	.	.
12E\J	.	.	.	.	.	.	.
12D\L	.	.	.	.	.	.	.
12E\	.	.	.	.	.	.	.
12D\J)	.	.	.	.	.	.	.
!!LO:LB:g=original
=27	=27	=27	=27	=27	=27	=27	=27
4C/	.	4A/	.	4a/	.	12eee\L])	.
.	.	.	.	.	.	(12fffn\	.
.	.	.	.	.	.	12eee\J	.
4BB/	.	[4e\	.	4g#X/	.	12ddd\L	.
.	.	.	.	.	.	12eee\	.
.	.	.	.	.	.	12ddd\J	.
=28	=28	=28	=28	=28	=28	=28	=28
4AA/	.	2e\_	.	4a/	.	12ccc\L	.
.	.	.	.	.	.	12ddd\	.
.	.	.	.	.	.	12ccc\J	.
4GG#X/	.	.	.	4dd\	.	12bb\L	.
.	.	.	.	.	.	12ccc\	.
.	.	.	.	.	.	12bb\J	.
=29	=29	=29	=29	=29	=29	=29	=29
2AA/	.	2e\]	.	2cc\	.	12aa\L)	.
.	.	.	.	.	.	12gg#X'\	.
.	.	.	.	.	.	12aa'\J	.
.	.	.	.	.	.	12ccc'\L	.
.	.	.	.	.	.	12bb'\	.
.	.	.	.	.	.	12aa'\J	.
=30	=30	=30	=30	=30	=30	=30	=30
!	!	!LO:TX:b:t=g	!	!	!	!	!
2BB/	.	[2g\	.	2dd\	.	12gg'\L	.
.	.	.	.	.	.	12ff#'\	.
.	.	.	.	.	.	12gg'\J	.
.	.	.	.	.	.	12dd'\L	.
.	.	.	.	.	.	12gg'\	.
.	.	.	.	.	.	12ffn'\J	.
=31	=31	=31	=31	=31	=31	=31	=31
12C/L	.	2g\]	.	2cc\	.	4ee\	.
12E/	.	.	.	.	.	.	.
12GG/J	.	.	.	.	.	.	.
12C/L	.	.	.	.	.	4r	.
12EE/	.	.	.	.	.	.	.
12GG/J	.	.	.	.	.	.	.
=32	=32	=32	=32	=32	=32	=32	=32
[2CC/	.	[2c\	fz	[2G/ [2e	fz	2eee\	fz
=33	=33	=33	=33	=33	=33	=33	=33
2CC/_	.	2c\_	.	2G/_ 2e_	.	12eee\L	.
.	.	.	.	.	.	(12gg\	.
.	.	.	.	.	.	12ccc\J)	.
.	.	.	.	.	.	12ee'\L	.
.	.	.	.	.	.	12gg'\	.
.	.	.	.	.	.	12cc'\J	.
=34	=34	=34	=34	=34	=34	=34	=34
2CC/_	.	2c\_	>	2G/_ 2e_	>	12ee'\L	>
.	.	.	.	.	.	12g'\	.
.	.	.	.	.	.	12cc'\J	.
.	.	.	.	.	.	12e'/L	.
.	.	.	.	.	.	12g'/	.
.	.	.	]	.	]	12G'/J	]
=35	=35	=35	=35	=35	=35	=35	=35
2CC/_	.	2c\_	p	2G/] 2e_	p	(>2c/	p
=36	=36	=36	=36	=36	=36	=36	=36
2CC/]	.	2c\_	.	2e/_>	.	2e/	.
=37	=37	=37	=37	=37	=37	=37	=37
[2C/	.	4c\]	.	2e/_>	<	[2g/)	<
.	.	12G/L	<	.	.	.	.
.	.	12F#X/	.	.	.	.	.
.	.	12G/J	.	.	.	.	.
=38	=38	=38	=38	=38	=38	=38	=38
2C/]	.	12A/L	.	2e/_>	[[	2g/_	.
.	.	12G#X/	.	.	.	.	.
.	.	12A/J	.	.	.	.	.
.	.	12A#X/L	[	.	.	.	.
.	.	12G##X/	.	.	.	.	.
.	.	12A#/J	.	.	.	.	[
=39	=39	=39	=39	=39	=39	=39	=39
[2BB/	.	[2B/	f	2e/]	f	12g/L]	f
.	.	.	.	.	.	12e/	.
.	.	.	.	.	.	12g/J	.
.	.	.	.	.	.	12b\L	.
.	.	.	.	.	.	12ee\	.
.	.	.	.	.	.	12gg\J	.
=40	=40	=40	=40	=40	=40	=40	=40
2BB/]	.	12B/L]	<	[2g/ [2ee	.	[2bb\	.
.	.	12E/	.	.	.	.	.
.	.	12G/J	.	.	.	.	.
.	.	12B\L	.	.	.	.	.
.	.	12e\	.	.	.	.	.
.	.	12g\J	.	.	.	.	.
=41	=41	=41	=41	=41	=41	=41	=41
4BB/	.	4b\	[	4g/] 4ee]	.	4bb\]	.
4r	.	4r	.	4r	.	4r	.
!!LO:LB:g=original
=42	=42	=42	=42	=42	=42	=42	=42
4BB/	.	4B\ 4f#	sf	4B/ 4a	sf	4ddd#X\	sf
4r	.	4r	.	4r	.	4r	.
=43	=43	=43	=43	=43	=43	=43	=43
4EE/	.	4e\	ff	4B/ 4g	ff	4eee\	ff
!	!	!LO:TX:b:i:t=con fuoco	!	!LO:TX:b:i:t=con fuoco	!	!	!LO:DY:a
4E\	.	4B/	.	4G/ 4e	.	[4e/	sf
=44	=44	=44	=44	=44	=44	=44	=44
!	!	!	!	!	!	!LO:TX:a:i:t=con fuoco	!
4E\	.	4B/	.	4G/ 4e	.	12e/L]	.
.	.	.	.	.	.	12d#X/	.
.	.	.	.	.	.	12e/J	.
4E\	.	4B/	.	4G/ 4e	.	12g/L	.
.	.	.	.	.	.	12f#/	.
.	.	.	.	.	.	12e/J	.
=45	=45	=45	=45	=45	=45	=45	=45
*tremolo	*	*tremolo	*	*tremolo	*	*	*
*tuplet	*	*	*	*	*	*	*
!LO:TX:a:t=3.	!	!	!	!	!	!	!
12E\L	.	12B/L	.	12G/L 12e	.	(4cc^<\	.
12E\	.	12B/	.	12G/ 12e	.	.	.
12E\J	.	12B/J	.	12G/J 12e	.	.	.
*Xtuplet	*	*	*	*	*	*	*
*rep	*	*rep	*	*rep	*	*	*
12E\L	.	12B/L	.	12G/L 12e	.	8b\)	.
12E\	.	12B/	.	12G/ 12e	.	.	.
.	.	.	.	.	.	8r	.
12E\J	.	12B/J	.	12G/J 12e	.	.	.
*Xrep	*	*Xrep	*	*Xrep	*	*	*
=46	=46	=46	=46	=46	=46	=46	=46
*rep	*	*rep	*	*rep	*	*	*
12E\L	.	12B/L	.	12G/L 12e	.	(4ff#^<\	.
12E\	.	12B/	.	12G/ 12e	.	.	.
12E\J	.	12B/J	.	12G/J 12e	.	.	.
12E\L	.	12B/L	.	12G/L 12e	.	8ee\)	.
12E\	.	12B/	.	12G/ 12e	.	.	.
.	.	.	.	.	.	8r	.
12E\J	.	12B/J	.	12G/J 12e	.	.	.
*Xrep	*	*Xrep	*	*Xrep	*	*	*
=47	=47	=47	=47	=47	=47	=47	=47
4EE/	.	4A/	.	4c/	.	8ff#\	.
.	.	.	.	.	.	8r	.
4E\	.	4c\	.	4f#/ 4a	.	[4ccc\	fz
=48	=48	=48	=48	=48	=48	=48	=48
4E\	.	4c\	.	4f#/ 4a	.	12ccc\L]	.
.	.	.	.	.	.	12bb\	.
.	.	.	.	.	.	12aa\J	.
4E\	.	4c\	.	4f#/ 4a	.	12gg\L	.
.	.	.	.	.	.	12ff#\	.
.	.	.	.	.	.	12ee\J	.
=49	=49	=49	=49	=49	=49	=49	=49
*rep	*	*	*	*	*	*	*
4E\	.	4B\	.	4f#/ 4a	.	12dd#X\L	.
.	.	.	.	.	.	12ee\	.
.	.	.	.	.	.	12ff#\J	.
4E\	.	4d#X\	.	4B/ 4a	.	12ee\L	.
.	.	.	.	.	.	12dd#\	.
.	.	.	.	.	.	12cc\J	.
*Xrep	*	*	*	*	*	*	*
=50	=50	=50	=50	=50	=50	=50	=50
*rep	*	*	*	*	*	*	*
4E\	.	4d#X\	.	4B/ 4a	.	12b\L	.
.	.	.	.	.	.	12cc\	.
.	.	.	.	.	.	12b\J	.
4E\	.	4d#\	.	4B/ 4a	.	12a/L	.
.	.	.	.	.	.	12g/	.
.	.	.	.	.	.	12f#/J	.
*Xrep	*	*	*	*	*	*	*
=51	=51	=51	=51	=51	=51	=51	=51
4EE/	.	4e\	.	4B/ 4g	.	4e/	.
4E\	.	4B\ 4e	.	4G/ 4e	.	[4e/	fz
=52	=52	=52	=52	=52	=52	=52	=52
4E\	.	4B\ 4e	.	4G/ 4e	.	12e/L]	.
.	.	.	.	.	.	12d#X/	.
.	.	.	.	.	.	12e/J	.
4E\	.	4B\ 4e	.	4G/ 4e	.	12g/L	.
.	.	.	.	.	.	12f#/	.
.	.	.	.	.	.	12e/J	.
=53	=53	=53	=53	=53	=53	=53	=53
*tuplet	*	*	*	*	*	*	*
!LO:TX:t=3.	!	!	!	!	!	!	!
12E\L	.	12B/L	.	12G/L 12e	.	(4cc^<\	.
12E\	.	12B/	.	12G/ 12e	.	.	.
12E\J	.	12B/J	.	12G/J 12e	.	.	.
*Xtuplet	*	*	*	*	*	*	*
*rep	*	*rep	*	*rep	*	*	*
12E\L	.	12B/L	.	12G/L 12e	.	8b\)	.
12E\	.	12B/	.	12G/ 12e	.	.	.
.	.	.	.	.	.	8r	.
12E\J	.	12B/J	.	12G/J 12e	.	.	.
*Xrep	*	*Xrep	*	*Xrep	*	*	*
=54	=54	=54	=54	=54	=54	=54	=54
*rep	*	*rep	*	*rep	*	*	*
12E\L	.	12B/L	.	12G/L 12e	.	(4ff#^<\	.
12E\	.	12B/	.	12G/ 12e	.	.	.
12E\J	.	12B/J	.	12G/J 12e	.	.	.
12E\L	.	12B/L	.	12G/L 12e	.	8ee\)	.
12E\	.	12B/	.	12G/ 12e	.	.	.
.	.	.	.	.	.	8r	.
12E\J	.	12B/J	.	12G/J 12e	.	.	.
*Xrep	*	*Xrep	*	*Xrep	*	*	*
*Xtremolo	*	*Xtremolo	*	*Xtremolo	*	*	*
=55	=55	=55	=55	=55	=55	=55	=55
4F#\	.	4A/	.	4d/	.	4dd\	.
4F#\	.	4A/	.	4d/	.	[4ddd\	fz
!!LO:LB:g=original
=56	=56	=56	=56	=56	=56	=56	=56
*	*	*rep	*	*	*	*	*
4F#\	.	4A/	.	4d/	.	12ddd\L]	.
.	.	.	.	.	.	12ccc#X\	.
.	.	.	.	.	.	12cccn\J	.
4F#\	.	4A/	.	4d/	.	12bb\L	.
.	.	.	.	.	.	12aa\	.
.	.	.	.	.	.	12gg\J	.
*	*	*Xrep	*	*	*	*	*
=57	=57	=57	=57	=57	=57	=57	=57
*	*	*rep	*	*	*	*	*
4FF#/	.	4A/	.	4c/ 4d	.	12ff#\L	.
.	.	.	.	.	.	12gg\	.
.	.	.	.	.	.	12aa\J	.
4FF#/	.	4A/	.	4c/ 4d	.	12gg\L	.
.	.	.	.	.	.	12ff#\	.
.	.	.	.	.	.	12ee\J	.
*	*	*Xrep	*	*	*	*	*
=58	=58	=58	=58	=58	=58	=58	=58
*	*	*rep	*	*rep	*	*	*
4FF#/	.	4A/	.	4c/ 4d	.	12dd\L	.
.	.	.	.	.	.	12ee\	.
.	.	.	.	.	.	12dd\J	.
4FF#/	.	4A/	.	4c/ 4d	.	12cc\L	.
.	.	.	.	.	.	12b\	.
.	.	.	.	.	.	12a\J	.
*	*	*Xrep	*	*Xrep	*	*	*
=59	=59	=59	=59	=59	=59	=59	=59
!	!	!	!LO:DY:t=sempre ff	!	!LO:DY:t=sempre ff	!	!LO:DY:t=sempre ff
4GG/	.	4B\	ff	4B/ 4d	ff	4g/	ff
[4GG/	.	[4B\	.	[4g/	.	12g/L	.
.	.	.	.	.	.	12b/	.
.	.	.	.	.	.	12dd/J	.
=60	=60	=60	=60	=60	=60	=60	=60
*tuplet	*	*tuplet	*	*	*	*	*
!LO:TUP:a	!	!LO:TUP:a	!	!	!	!	!
12GG/L]	.	12B\L]	.	4g/]	.	4gg\	.
12FF#/	.	12A\	.	.	.	.	.
12GG/J	.	12B\J	.	.	.	.	.
*Xtuplet	*	*Xtuplet	*	*	*	*	*
12AA/L	.	12c\L	.	[4g/	.	[4gg^<\	.
12GG/	.	12B\	.	.	.	.	.
12AA/J	.	12c\J	.	.	.	.	.
=61	=61	=61	=61	=61	=61	=61	=61
12BB/L	.	12d\L	.	4g/]	.	4gg\]	.
12AA#X/	.	12c#X\	.	.	.	.	.
12BB/J	.	12d\J	.	.	.	.	.
12GG/L	.	12B/L	.	[4g/	.	[4gg^<\	.
12FF#/	.	12A#X/	.	.	.	.	.
12GG/J	.	12B/J	.	.	.	.	.
=62	=62	=62	=62	=62	=62	=62	=62
12C/L	.	12e\L	.	4g/]	.	4gg\]	.
12BB/	.	12d#X\	.	.	.	.	.
12C/J	.	12e\J	.	.	.	.	.
12BB/L	.	12d#\L	.	(4g/	.	[4gg^<\	.
12AA#X/	.	12c#X\	.	.	.	.	.
12BB/J	.	12d#\J	.	.	.	.	.
=63	=63	=63	=63	=63	=63	=63	=63
4AA/	.	4c#X\	.	4e/)	.	4gg\]	.
4AA/	.	4c#\	.	4A/ 4g	.	[4ggg\	.
=64	=64	=64	=64	=64	=64	=64	=64
*rep	*	*rep	*	*	*	*	*
4AA/	.	4c#X\	.	4A/ 4g	.	12ggg\L]	.
.	.	.	.	.	.	12eee\	.
.	.	.	.	.	.	12ccc#X\J	.
4AA/	.	4c#\	.	4A/ 4g	.	12aa\L	.
.	.	.	.	.	.	12gg\	.
.	.	.	.	.	.	12ee\J	.
*Xrep	*	*Xrep	*	*	*	*	*
=65	=65	=65	=65	=65	=65	=65	=65
[2AA/	.	[2c#X\	.	[2A/ [2g	.	12cc#X\L	.
.	.	.	.	.	.	12gg\	.
.	.	.	.	.	.	12ff#\J	.
.	.	.	.	.	.	12ee\L	.
.	.	.	.	.	.	12dd\	.
.	.	.	.	.	.	12cc#\J	.
=66	=66	=66	=66	=66	=66	=66	=66
2AA/]	.	2c#\]	.	2A/] 2g]	.	12b/L	.
.	.	.	.	.	.	12a/	.
.	.	.	.	.	.	12g#X/J	.
.	.	.	.	.	.	12a/L	.
.	.	.	.	.	.	12gn/	.
.	.	.	.	.	.	12e/J	.
=67	=67	=67	=67	=67	=67	=67	=67
!LO:TX:a:t=1.	!	!	!	!	!	!	!
[2D\	.	4d\	.	4A/ 4f#	.	4d/	.
*	*	*	*	*tuplet	*	*	*
.	.	4r	.	12d/L	.	4r	.
.	.	.	.	12f#/	.	.	.
.	.	.	.	12a/J	.	.	.
*	*	*	*	*Xtuplet	*	*	*
=68	=68	=68	=68	=68	=68	=68	=68
!LO:TX:a:t=2.	!	!	!	!	!	!	!
2D\_	.	4r	.	4dd\	.	[2ddd\	fz
.	.	(12e\L	.	(12f#/L	.	.	.
.	.	12d#X\	.	12e#X/	.	.	.
.	.	12e\J	.	12f#/J	.	.	.
=69	=69	=69	=69	=69	=69	=69	=69
!LO:TX:a:t=3.	!	!	!	!	!	!	!
2D\_	.	12f#\L	.	12a\L	.	2ddd\_	.
.	.	12e#X\	.	12g#X\	.	.	.
.	.	12f#\J	.	12a\J	.	.	.
.	.	12g\L	.	12b\L	.	.	.
.	.	12f#\	.	12a\	.	.	.
.	.	12g\J)	.	12b\J	.	.	.
!!LO:PB:g=original
=70	=70	=70	=70	=70	=70	=70	=70
!LO:TX:a:t=4.	!	!	!	!	!	!	!
2D\_	.	2a\	.	2cc\)	.	12ddd\L]	.
!	!	!	!	!	!	!LO:TX:a:t=P:problem:zakończenie łuku bez początku	!
.	.	.	.	.	.	12ccc\	.
.	.	.	.	.	.	12bb'\J	.
.	.	.	.	.	.	12aa'\L	.
.	.	.	.	.	.	12gg'\	.
.	.	.	.	.	.	12ff#\J	.
=71	=71	=71	=71	=71	=71	=71	=71
!LO:TX:a:t=5.	!	!LO:TX:b:t=dim-:problem:dynamics with extention lines	!LO:HP:i:t=dim-:ext=cd	!LO:TX:b:t=dim-:problem:dynamics with extention lines	!LO:HP:i:t=dim-:ext=cd	!LO:TX:b:t=dim-:problem:dynamics with extention lines	!LO:HP:i:t=dim-:ext=cd
2D\_	.	2b\	>	(2dd\	>	(12gg\L	>
.	.	.	.	.	.	12ff#\	.
.	.	.	.	.	.	12gg\J	.
.	.	.	.	.	.	12bb\L	.
.	.	.	.	.	.	12aa\	.
.	.	.	.	.	.	12gg\J	.
=72	=72	=72	=72	=72	=72	=72	=72
!LO:TX:a:t=6.	!	!	!	!	!	!	!
2D\_	.	2a\	.	2cc\	.	12ff#\L	.
.	.	.	.	.	.	12ee\	.
.	.	.	.	.	.	12ff#\J	.
.	.	.	.	.	.	12aa\L	.
.	.	.	.	.	.	12gg\	.
.	.	.	.	.	.	12ff#\J)	.
=73	=73	=73	=73	=73	=73	=73	=73
!LO:TX:a:t=7.	!	!	!	!	!	!	!
2D\_	.	[2g\	.	2b\	.	(12ee\L	.
.	.	.	.	.	.	12dd#X\	.
.	.	.	.	.	.	12ee\J	.
.	.	.	.	.	.	12gg\L	.
.	.	.	.	.	.	12ff#\	.
.	.	.	.	.	.	12ee\J	.
=74	=74	=74	=74	=74	=74	=74	=74
!LO:TX:a:t=8.	!	!	!	!	!	!LO:TUP:a:problem:klamra łukowa	!
2D\_	.	2g\]	.	2b-X\	.	12ff#\L	.
.	.	.	.	.	.	12ee\	.
.	.	.	.	.	.	12dd\J	.
!	!	!	!	!	!	!LO:TUP:a:problem:klamra łukowa	!
.	.	.	.	.	.	12ee\L	.
.	.	.	.	.	.	12dd\	.
.	.	.	.	.	]	12cc#X\J)	]
=75	=75	=75	=75	=75	=75	=75	=75
4D\]	.	4f#\	.	4a\)	.	4dd\	.
12D/L	.	4r	.	4r	.	4r	.
12AA/	.	.	.	.	.	.	.
12FF#/J	.	.	]	.	.	.	.
=76	=76	=76	=76	=76	=76	=76	=76
!LO:TX:a:t=1.	!	!	!	!	!	!	!
[2DD/	.	[2A/	f	([2f#/	f	4r	f
.	.	.	.	.	.	12d/L	.
.	.	.	.	.	.	12f#/	.
.	.	.	.	.	.	12a/J	.
=77	=77	=77	=77	=77	=77	=77	=77
!LO:TX:a:t=2.	!	!	!	!	!	!	!
2DD/_	.	12A/L]	.	12f#/L]	.	[2dd\	.
.	.	12G#X/	.	12e/	.	.	.
.	.	12A/J	.	12f#/J	.	.	.
.	.	12B/L	.	12g/L	.	.	.
.	.	12A/	.	12f#/	.	.	.
.	.	12B/J	.	12g/J	.	.	.
=78	=78	=78	=78	=78	=78	=78	=78
!LO:TX:a:t=3.	!	!	!	!	!	!	!
2DD/_	.	2c\	.	2a\)	.	12dd\L]	.
.	.	.	.	.	.	12dd'\	.
.	.	.	.	.	.	12dd#X'\J	.
.	.	.	.	.	.	12ee'\L	.
.	.	.	.	.	.	12ee#X'\	.
.	.	.	.	.	.	12ff#'\J	.
=79	=79	=79	=79	=79	=79	=79	=79
!LO:TX:a:t=4.	!	!	!	!	!	!	!
2DD/_	.	12B/L	.	(>12g/L	.	4gg\	.
.	.	12A#X/	.	12f#/	.	.	.
.	.	12B/J	.	12g/J	.	.	.
.	.	12d\L	.	12b/L	.	4r	.
.	.	12c\	.	12a/	.	.	.
.	.	12B\J	.	12g/J	.	.	.
=80	=80	=80	=80	=80	=80	=80	=80
!LO:TX:a:t=5.	!	!	!	!	!	!	!
2DD/_	.	12A/L	.	12f#/L	.	([2dd\	.
.	.	12G#X/	.	12e/	.	.	.
.	.	12A/J	.	12f#/J	.	.	.
.	.	12c/L	.	12a/L	.	.	.
.	.	12B/	.	12g/	.	.	.
.	.	12A/J	.	12f#/J)	.	.	.
=81	=81	=81	=81	=81	=81	=81	=81
!LO:TX:a:t=6.	!	!	!	!	!	!LO:TUP:a:problem:klamra łukowa	!
2DD/_	.	[2Gn/	.	[2e/	.	12dd\L]	.
!	!	!LO:TX:b:t=cres-:problem:dynamics with extention lines	!LO:HP:i:t=cres-:ext=cd	!LO:TX:b:t=cres-:problem:dynamics with extention lines	!LO:HP:i:t=cres-:ext=cd	!LO:TX:b:t=cres-:problem:dynamics with extention lines	!LO:HP:i:t=cres-:ext=cd
.	.	.	<	.	<	12cc#X\	<
.	.	.	.	.	.	12b\J	.
!	!	!	!	!	!	!LO:TUP:a:problem:klamra łukowa	!
.	.	.	.	.	.	12b\L	.
.	.	.	.	.	.	12a\	.
.	.	.	.	.	.	12g\J)	.
=82	=82	=82	=82	=82	=82	=82	=82
!LO:TX:a:t=7.	!	!	!	!	!	!LO:TUP:a:problem:klamra łukowa	!
2DD/]	.	2G/]	.	2e/]	.	(>12g/L	.
.	.	.	.	.	.	12f#/	.
.	.	.	.	.	.	12e/J	.
!	!	!	!	!	!	!LO:TUP:a:problem:klamra łukowa	!
.	.	.	.	.	.	12e/L	.
.	.	.	.	.	.	12d/	.
.	.	.	[[	.	[[	12c#X/J)	[
!!LO::LB:g=original
=83	=83	=83	=83	=83	=83	=83	=83
12DD/L	.	4F#/	ff	4d/	ff	4d/	ff
12FF#/	.	.	.	.	.	.	.
12AA/J	.	.	.	.	.	.	.
12D\L	.	4r	.	4r	.	4r	.
12F#\	.	.	.	.	.	.	.
12A\J	.	.	.	.	.	.	.
=84	=84	=84	=84	=84	=84	=84	=84
[2d\	.	12D/L	.	[2f#/	.	2r	.
.	.	12F#/	.	.	.	.	.
.	.	12A/J	.	.	.	.	.
.	.	12d\L	.	.	.	.	.
.	.	12f#\	.	.	.	.	.
.	.	12a\J	.	.	.	.	.
=85	=85	=85	=85	=85	=85	=85	=85
2d\_	.	[2dd\	.	2f#/_	.	12d/L	.
.	.	.	.	.	.	12f#/	.
.	.	.	.	.	.	12a/J	.
.	.	.	.	.	.	12dd\L	.
.	.	.	.	.	.	12ff#\	.
.	.	.	.	.	.	12aa\J	.
=86	=86	=86	=86	=86	=86	=86	=86
12d\L]	.	2dd\_	.	2f#/_	.	[2ddd\	.
12A\	.	.	.	.	.	.	.
12F#\J	.	.	.	.	.	.	.
12D/L	.	.	.	.	.	.	.
12AA/	.	.	.	.	.	.	.
12FF#/J	.	.	.	.	.	.	.
=87	=87	=87	=87	=87	=87	=87	=87
4DD/	.	4dd\]	.	4f#/]	.	4ddd\]	.
4D\	sf	4D/ 4A 4f#	sf	4r	.	4d\ 4ff# 4ddd	sf
=88	=88	=88	=88	=88	=88	=88	=88
2r	.	2r	.	[2dd\	f > ]	2r	.
=89	=89	=89	=89	=89	=89	=89	=89
2r	.	2r	.	(8dd\L]	p	2r	.
.	.	.	.	8dd#X\	.	.	.
.	.	.	.	8ee\	.	.	.
.	.	.	.	8ddn\J	.	.	.
=90	=90	=90	=90	=90	=90	=90	=90
2r	.	2r	.	8cc\L	>	2r	.
.	.	.	.	8b\	.	.	.
.	.	.	.	8cc\	]	.	.
.	.	.	.	8a\J)	.	.	.
=91	=91	=91	=91	=91	=91	=91	=91
!	!LO:DY:a	!	!	!	!	!LO:TX:b:i:t=dol&colon;	!
(2G\	p	2B/ 2d	.	(>2g/	p	(2b\	p
=92	=92	=92	=92	=92	=92	=92	=92
4G'\	.	4B/	.	4d'/	.	4f#'/	.
4G'\)	.	4B/	.	4d'/)	.	4g'/)	.
=93	=93	=93	=93	=93	=93	=93	=93
[2D^\	.	(2c\	.	[2f#^/ [2a	.	(2ee^<\	.
=94	=94	=94	=94	=94	=94	=94	=94
4D\]	.	4B\)	.	4f#/] 4a]	.	4dd\)	.
4r	.	4r	.	4r	.	4r	.
=95	=95	=95	=95	=95	=95	=95	=95
(2G\	.	2B\ 2d	.	(2g/	.	(2b\	.
=96	=96	=96	=96	=96	=96	=96	=96
4G'\	.	4B\	.	4d'>/	.	4f#'>/	.
4G'\)	.	4B\	.	4d'>/)	.	4g'>/)	.
=97	=97	=97	=97	=97	=97	=97	=97
[2D^\	.	[2c\	.	[2f#^/ [2a	.	(2ee^<\	.
=98	=98	=98	=98	=98	=98	=98	=98
4D\]	.	4c\]	.	4f#/] 4a]	.	4dd\)	.
4r	.	4r	.	4r	.	4r	.
!!LO:LB:g=original
=99	=99	=99	=99	=99	=99	=99	=99
[2G\	.	[2B/	<	[2g/	<	(2b\	<
=100	=100	=100	=100	=100	=100	=100	=100
2G\_	.	2B/_	.	2g/_	.	4cc#X\	.
.	.	.	[[	.	.	[4dd\	[[
=101	=101	=101	=101	=101	=101	=101	=101
2G\_	.	2B/_	.	4g/]	[	2dd\_	.
.	.	.	.	4f#/	.	.	.
=102	=102	=102	=102	=102	=102	=102	=102
2G\]	.	4B/]	>	2e#X/	>]	4dd\])	>
.	.	8c#X\L	.	.	.	(8cc#X\L	.
.	.	[8d\J	]]	.	.	[8b\J	]]
=103	=103	=103	=103	=103	=103	=103	=103
[2F#\	.	4d\]	p	[2f#/	p	4b\]	p
.	.	(8c#X'\L	.	.	.	8a#X'\L	.
.	.	8d'\J	.	.	.	8b'\J	.
=104	=104	=104	=104	=104	=104	=104	=104
2F#\]	.	4e'\	.	2f#/_	.	4cc#X'\	.
.	.	4c#X'\	.	.	.	4a#X'\	.
=105	=105	=105	=105	=105	=105	=105	=105
4B\	.	4d\)	.	4f#/]	.	4b\)	.
4r	.	4r	.	4r	.	4r	.
=106	=106	=106	=106	=106	=106	=106	=106
2D\	.	2f#\	f > ]	[2d/ (>2cc	f > ]	(2ddd\	f > ]
=107	=107	=107	=107	=107	=107	=107	=107
*	*	*	*	*^	*	*	*
!	!LO:DY:a	!	!	!	!	!	!	!
(2G\	p	2g\	.	4d/]	2b/)	p	12gg\L)	p
!	!	!	!	!LO:TX:b:i:t=dol.	!	!	!LO:TX:b:i:t=e leggier&colon;	!
.	.	.	.	.	.	.	(12ff#\	.
.	.	.	.	.	.	.	12gg\J	.
.	.	.	.	4ryy	.	.	12bb\L	.
.	.	.	.	.	.	.	12aa\	.
.	.	.	.	.	.	.	12gg\J	.
*	*	*	*	*v	*v	*	*	*
=108	=108	=108	=108	=108	=108	=108	=108
4G'\	.	4B\ 4d	.	(>4f#'/	.	4ddd\)	.
4G'\)	.	4B\ 4d	.	4g'/)	.	4r	.
=109	=109	=109	=109	=109	=109	=109	=109
(>2C^>/	.	([2g\	.	(2ee^<\	.	(12cc\L	>
.	.	.	.	.	.	12b\	.
.	.	.	.	.	.	12cc\J	.
.	.	.	.	.	.	12ee\L	.
.	.	.	.	.	.	12dd\	]
.	.	.	.	.	.	12cc\J	.
=110	=110	=110	=110	=110	=110	=110	=110
4GG/)	.	12g\L]	.	4dd\)	.	4b\)	.
.	.	12b\	.	.	.	.	.
.	.	12a\J	.	.	.	.	.
4r	.	12g\L	.	4r	.	4r	.
.	.	12f#\	.	.	.	.	.
.	.	12e\J)	.	.	.	.	.
=111	=111	=111	=111	=111	=111	=111	=111
(2G\	.	(2d\	.	(2b\	.	(12gg\L	.
.	.	.	.	.	.	12ff#\	.
.	.	.	.	.	.	12gg\J	.
.	.	.	.	.	.	12bb\L	.
.	.	.	.	.	.	12aa\	.
.	.	.	.	.	.	12gg\J	.
=112	=112	=112	=112	=112	=112	=112	=112
4G'\	.	4B'\ 4d	.	4f#'/	.	4ddd\)	.
4G'\)	.	4B'\) 4d	.	4g'/)	.	4r	.
=113	=113	=113	=113	=113	=113	=113	=113
(>2C^>/	.	[2g\	.	(2ee^<\	.	(12cc\L	>
.	.	.	.	.	.	12b\	.
.	.	.	.	.	.	12cc\J	.
.	.	.	.	.	.	12ee\L	]
.	.	.	.	.	.	12dd\	.
.	.	.	.	.	.	12cc\J	.
!!LO:LB:g=original
=114	=114	=114	=114	=114	=114	=114	=114
!	!	!	!	!LO:TX:a:t=P:problem:brak zakończenia łuku	!	!	!
4GG/)	.	12g\L]	.	4dd\)	.	4b\)	.
.	.	12e'\	.	.	.	.	.
.	.	12d'\J	.	.	.	.	.
4r	.	12c'\L	.	4r	.	4r	.
.	.	12B'\	.	.	.	.	.
.	.	12A'\J	.	.	.	.	.
=115	=115	=115	=115	=115	=115	=115	=115
!	!	!	!	!	!	!	!LO:DY:rj
2r	.	4G/	.	2r	.	12gg\L	mf
.	.	.	.	.	.	12ff#\	.
.	.	.	.	.	.	12gg\J	.
.	.	4r	.	.	.	12bb\L	.
.	.	.	.	.	.	12aa\	.
.	.	.	.	.	.	12gg\J	.
=116	=116	=116	=116	=116	=116	=116	=116
2r	.	4r	mf	4r	mf	[2ddd\	.
.	.	(4g#X^<\	.	([4ee^\	.	.	.
=117	=117	=117	=117	=117	=117	=117	=117
2r	.	4a\)	.	4ee\]	.	12ddd\L]	.
.	.	.	.	.	.	(12ccc\	.
.	.	.	.	.	.	12bb\J	.
.	.	(4f#^<\	.	[4dd^<\	.	[4ccc\	.
=118	=118	=118	=118	=118	=118	=118	=118
4r	.	4g\)	.	4dd\])	.	12ccc\L])	.
.	mf	.	.	.	.	(12bb\	.
.	.	.	.	.	.	12aa\J	.
(4E^<\	.	[4e^<\	.	(4g/	.	[4bb\	.
=119	=119	=119	=119	=119	=119	=119	=119
4C\)	.	4e\]	.	4e/)	.	12bb\L])	.
.	.	.	.	.	.	(12aa\	.
.	.	.	.	.	.	12gg#X\J	.
!	!	!LO:TX:b:t=dim-:problem:dynamics with extention lines	!LO:HP:t=dim-:ext=cd	!LO:TX:b:t=dim-:problem:dynamics with extention lines	!LO:HP:t=dim-:ext=cd	!LO:TX:b:t=dim-:problem:dynamics with extention lines	!LO:HP:t=dim-:ext=cd
4C\	.	4e\	>	4a/	>	[4aa\	>
=120	=120	=120	=120	=120	=120	=120	=120
4C#X\	.	4e\	.	4a/	.	12aa\L])	.
.	.	.	.	.	.	12gg#X'\	.
.	.	.	.	.	.	12aa'\J	.
4C#\	.	4e\	.	4a/	.	12ee'\L	.
.	.	.	.	.	.	12aa'\	.
.	.	.	.	.	.	12ggn'\J	.
=121	=121	=121	=121	=121	=121	=121	=121
4D\	.	4d\	.	4a/	.	12ff#'\L	.
.	.	.	.	.	.	12ee'\	.
.	.	.	.	.	.	12ff#'\J	.
4AA/	.	4e\	.	4A/ 4g	.	12gg'\L	.
.	.	.	.	.	.	12b'\	.
.	.	.	]]	.	]]	12cc#X'\J	]]
=122	=122	=122	=122	=122	=122	=122	=122
12D'\L	.	4d\	p	4A/ 4f#	p	4dd\	p
12E'\	.	.	.	.	.	.	.
12D'\J	.	.	.	.	.	.	.
12C'/L	.	4r	.	4r	.	4r	.
12BB'/	.	.	.	.	.	.	.
12AA'/J	.	.	.	.	.	.	.
=123	=123	=123	=123	=123	=123	=123	=123
4GG/	.	12G/L	.	2r	.	2r	.
.	.	12F#/	.	.	.	.	.
.	.	12G/J	.	.	.	.	.
4r	.	12B/L	.	.	.	.	.
.	.	12A/	.	.	.	.	.
.	.	12G/J	.	.	.	.	.
=124	=124	=124	=124	=124	=124	=124	=124
4r	.	(2d^<\	.	4r	.	2r	.
(4Fn^<\	.	.	.	[4gg^<\	.	.	.
=125	=125	=125	=125	=125	=125	=125	=125
4E\	.	4c\)	.	4gg\]	.	4r	.
4D^<\	.	(4fn\	.	(4b\	.	(4gg#X^<\	.
=126	=126	=126	=126	=126	=126	=126	=126
4C\)	.	4e\)	.	4a\)	.	4aa\)	.
(4C#X\	.	(<4B-X/	fz >	[4g/	fz >	[4eee\	fz >
=127	=127	=127	=127	=127	=127	=127	=127
4D\)	.	4Bn'\)	]	4g/]	]	12eee\L]	]
.	.	.	.	.	.	12ddd\	.
.	.	.	.	.	.	12ccc\J	.
4D\	.	4B\ 4d	.	4g/	.	12bb\L	.
.	.	.	.	.	.	12aa\	.
.	.	.	.	.	.	12gg\J	.
!!LO:PB:g=original
=128	=128	=128	=128	=128	=128	=128	=128
4D\	.	4c\ 4d	<	4f#/	<	12ff#\L	<
.	.	.	.	.	.	12ee\	.
.	.	.	.	.	.	12dd\J	.
4D\	.	4c\ 4d	.	4f#/	.	12cc\L	.
.	.	.	[	.	[	12b\	.
.	.	.	.	.	.	12a\J	[
=129	=129	=129	=129	=129	=129	=129	=129
4G\	.	4B\ 4d	f	4g/	f	4g/	f
!	!	!	!	!LO:TX:a:t=Unisono:problem:na pięciolinii, zamiast nut	!	!	!
!	!	!	!	!LO:TX:t=P:problem:t. 129-131 jako repetycja vl I	!	!	!
8.g\L	.	8.g\L	.	8.gg\Lyy	.	8.gg\L	.
16f#\Jk	.	16f#\Jk	.	16ff#\Jkyy	.	16ff#\Jk	.
=130	=130	=130	=130	=130	=130	=130	=130
12e\L	.	12e\L	.	12ee\Lyy	.	12ee\L	.
12d\	.	12d\	.	12dd\yy	.	12dd\	.
12c\J	.	12c\J	.	12cc\Jyy	.	12cc\J	.
12B\L	.	12B/L	.	12b/Lyy	.	12b\L	.
12A\	.	12A/	.	12a/yy	.	12a\	.
12G\J	.	12G/J	.	12g/Jyy	.	12g\J	.
=131	=131	=131	=131	=131	=131	=131	=131
12F#\L	.	12f#\L	.	12f#/Lyy	.	12f#/L	.
12E\	.	12e\	.	12e/yy	.	12e/	.
12D\J	.	12d\J	.	12d/Jyy	.	12d/J	.
12C/L	.	12c/L	.	12c/Lyy	.	12c/L	.
12BB/	.	12B/	.	12B/yy	.	12B/	.
12AA/J	.	12A/J	.	12A/Jyy	.	12A/J	.
=132	=132	=132	=132	=132	=132	=132	=132
4GG/	.	4G/	.	4G/	.	4G/	.
4BBt/	.	[4G/	rfz	(4d/	rfz >	(4fn/	rfz >
(16qqAA/LL	.	.	.	.	.	.	.
16qqBB/JJ)	.	.	.	.	.	.	.
=133	=133	=133	=133	=133	=133	=133	=133
4C/	.	4G/]	.	4c/)	]	12e/L)	]
.	.	.	.	.	.	12g/	p
.	.	.	.	.	.	12cc/J	.
4r	.	4r	.	4r	.	12ee\L	.
.	.	.	.	.	.	12gg\	.
.	.	.	.	.	.	12ccc\J	.
=134	=134	=134	=134	=134	=134	=134	=134
4r	.	4r	.	4r	.	4eee\	.
4E\	.	[4G/	rfz >	(4B-X/	rfz >	(4c#X/	rfz >
=135	=135	=135	=135	=135	=135	=135	=135
4D\	.	4G/]	] p	4Bn/)	] p	12d/L)	] p
.	.	.	.	.	.	12g/	.
.	.	.	.	.	.	12b/J	.
4D\	.	4G/	.	4B/	.	12dd\L	.
.	.	.	.	.	.	12dd\	.
.	.	.	.	.	.	[12dd\J	.
=136	=136	=136	=136	=136	=136	=136	=136
*rep	*	*	*	*	*	*	*
4D\	.	4A/	.	4c/	.	12dd\L]	.
.	.	.	.	.	.	12dd\	.
.	.	.	.	.	.	12dd#X\J	.
4D\	.	4A/	.	4c/	.	12ee\L	.
.	.	.	.	.	.	12ee#X\	.
.	.	.	.	.	.	12ff#\J	.
*Xrep	*	*	*	*	*	*	*
=137	=137	=137	=137	=137	=137	=137	=137
4G\	.	4G/	.	4B/	.	4gg\	.
!	!	!	!	!LO:TX:a:t=Unisono:problem:na pięciolinii, zamiast nut	!	!	!
!	!	!	!	!LO:TX:t=P:problem:t. 137-139 jako repetycja vl I	!	!	!
8.g\L	.	8.g\L	f	8.gg\Lyy	f	8.gg\L	f
16f#\Jk	.	16f#\Jk	.	16ff#\Jkyy	.	16ff#\Jk	.
=138	=138	=138	=138	=138	=138	=138	=138
12e\L	.	12e\L	.	12ee\Lyy	.	12ee\L	.
12d\	.	12d\	.	12dd\yy	.	12dd\	.
12c\J	.	12c\J	.	12cc\Jyy	.	12cc\J	.
12B\L	.	12B/L	.	12b/Lyy	.	12b/L	.
12A\	.	12A/	.	12a/yy	.	12a/	.
12G\J	.	12G/J	.	12g/Jyy	.	12g/J	.
=139	=139	=139	=139	=139	=139	=139	=139
12F#\L	.	12f#\L	.	12f#/Lyy	.	12f#/L	.
12E\	.	12e\	.	12e/yy	.	12e/	.
12D\J	.	12d\J	.	12d/Jyy	.	12d/J	.
12C/L	.	12c\L	.	12c/Lyy	.	12c/L	.
12BB/	.	12B\	.	12B/yy	.	12B/	.
12AA/J	.	12A\J	.	12A/Jyy	.	12A/J	.
=140	=140	=140	=140	=140	=140	=140	=140
4GG/	.	4G/	.	4G/	.	4G/	.
4BBt/	.	[4G/	sf >	(4d/	sf >	(4fn/	sf >
(16qqAA/LL	.	.	.	.	.	.	.
16qqBB/JJ)	.	.	.	.	.	.	.
=141	=141	=141	=141	=141	=141	=141	=141
4C/	.	4G/]	] p	4c/)	] p	12e/L)	] p
.	.	.	.	.	.	12g/	.
.	.	.	.	.	.	12cc/J	.
4r	.	4r	.	4r	.	12ee\L	.
.	.	.	.	.	.	12gg\	.
.	.	.	.	.	.	12ccc\J	.
=142	=142	=142	=142	=142	=142	=142	=142
4r	.	4r	.	4r	.	4eee\	.
!LO:TX:a:t=P:problem:brak początku łuku	!	!	!	!	!	!	!
(4E\	.	(4B-X\	rfz	[4g/	.	(4c#X/	rfz
!!LO:LB:g=original
=143	=143	=143	=143	=143	=143	=143	=143
4D\)	.	4Bn\)	p	4g/]	.	12d/L)	p
.	.	.	.	.	.	12g/	.
.	.	.	.	.	.	12b/J	.
4D\	.	4B\	.	4g/	.	12dd\L	.
.	.	.	.	.	.	12dd\	.
.	.	.	.	.	.	12dd\J	.
=144	=144	=144	=144	=144	=144	=144	=144
4DD/	.	4c\	.	4a/	.	12dd\L	.
.	.	.	.	.	.	12dd\	.
.	.	.	.	.	.	12dd#X\J	.
*rep	*	*	*	*	*	*	*
4DD/	.	4c\	.	4a/	.	12ee\L	.
.	.	.	.	.	.	12ee#X\	.
.	.	.	.	.	.	12ff#\J	.
*Xrep	*	*	*	*	*	*	*
=145	=145	=145	=145	=145	=145	=145	=145
*	*	*	*	*	*	*	*^
4GG/	.	4B\	.	4g/	.	4gg\	.	.
!	!	!	!	!	!	!	!LO:HP:a	!
!	!	!	!	!	!	!	!LO:DY:a	!
[4C/	.	[4A-X/	f > ]]	[4e-X/	f > ]]	[4a-X/	f > ]	f >
*	*	*	*	*	*	*	*v	*v
=146	=146	=146	=146	=146	=146	=146	=146
4C/]	.	4A-/]	.	4e-/]	.	4a-/]	]
4C#X/	.	4B-X/	p	4en/	p	4g/	p
=147	=147	=147	=147	=147	=147	=147	=147
*tuplet	*	*tuplet	*	*tuplet	*	*tuplet	*
12D\L	.	12An/L	.	12d/L	.	12f#/L	.
12D\	.	12A/	.	12d/	.	12f#/	.
12D\J	.	12A/J	.	12d/J	.	12f#/J	.
*Xtuplet	*	*Xtuplet	*	*Xtuplet	*	*	*
4E\	.	4G/	.	4B/	.	4g/	.
=148	=148	=148	=148	=148	=148	=148	=148
4C\	.	4c\	.	4e/	.	4a\	.
4D\	.	4c\	.	4f#/	.	4cc\	.
=149	=149	=149	=149	=149	=149	=149	=149
4GG/	.	4B\	.	4g/	.	4b\	.
[4c\	.	[4cc\	f > ]	[4ee-X\	f >	[4aa-X\	f > ]
=150	=150	=150	=150	=150	=150	=150	=150
4c\]	.	4cc\]	.	4ee-\]	]	4aa-\]	.
4c#X\	.	4b-X\	p	4een\	p	4gg\	p
=151	=151	=151	=151	=151	=151	=151	=151
!	!	!	!	!	!	!LO:TUP:a	!
12d\L	.	12a\L	.	12cc\L	.	12ff#\L	.
12d\	.	12a\	.	12cc\	.	12ff#\	.
12d\J	.	12a\J	.	12cc\J	.	12ff#\J	.
*	*	*	*	*	*	*Xtuplet	*
4e\	.	4g\	.	4b\	.	4gg\	.
=152	=152	=152	=152	=152	=152	=152	=152
4c\	.	4e\	.	4a\	.	4aa\	.
4d\	.	4a\	.	4d/ 4dd	.	4ff#\	.
=153	=153	=153	=153	=153	=153	=153	=153
4G\	.	4g\	.	4d/ 4b	.	4gg\	.
4r	.	4r	.	4r	.	4r	.
=154	=154	=154	=154	=154	=154	=154	=154
4D\	.	4D/ 4A 4f#	f	4d/ 4a 4ff#	f	4dd\ 4bb	f
4r	.	4r	.	4r	.	4r	.
=155	=155	=155	=155	=155	=155	=155	=155
4G\	.	4G\ 4g	.	4d/ 4b 4gg	.	4g\ 4dd 4bb	.
4GG/	.	4G/	.	4G/	.	4G/	.
=156	=156	=156	=156	=156	=156	=156	=156
!	!	!	!	!	!	!LO:TX:a:t=1	!
2r	.	2r	.	2r	.	2r	.
=157	=157	=157	=157	=157	=157	=157	=157
*>A1	*	*>A1	*	*>A1	*	*>A1	*
4B\	.	4b\	sf	4B/ 4f# 4dd#X	.	4B\ 4f# 4dd#X 4bb	f
!	!	!	!	!	!	!LO:TX:a:t=Ia	!
4BB/	.	4B\	sf	4B/	.	4B/	sf
=158	=158	=158	=158	=158	=158	=158	=158
4r	.	4r	.	4r	.	4r	.
.	.	.	p	.	.	.	p
(4BB/	.	(4B\	.	(>4B/	.	(>4B/	.
=159	=159	=159	=159	=159	=159	=159	=159
4C/	.	4c\	<	4c/	<	4c/	<
4C#X/	.	4c#X\	.	4c#X/	.	4c#X/	.
=160	=160	=160	=160	=160	=160	=160	=160
4D\	.	4d\	.	4d/	.	4d/	.
.	.	.	[	.	[	.	[
4D#X\)	.	4d#X\)	> ]]	4d#X/)	> ]]	4d#X/)	> ]]
!!LO:LB:g=original
=161:|!	=161:|!	=161:|!	=161:|!	=161:|!	=161:|!	=161:|!	=161:|!
*>A2	*	*>A2	*	*>A2	*	*>A2	*
!	!	!	!LO:DY:rj	!	!	!	!LO:DY:rj
4C/	.	4C/ 4G 4e	f	4G/ 4e 4cc	.	4g\ 4ee 4ccc	f
!	!	!	!	!	!	!LO:TX:a:t=2a	!
4CC/	.	4C/	.	4c/	.	4c/	.
=162	=162	=162	=162	=162	=162	=162	=162
*>B	*	*>B	*	*>B	*	*>B	*
[2C^/	.	4r	.	4r	.	([2cc^<\	.
.	.	4E/	p	(>4c/	p	.	.
=163	=163	=163	=163	=163	=163	=163	=163
2C/_	p	4Fn/	.	4d/	.	2cc\_	p
.	.	4F#X/	.	4d#X/	.	.	.
=164	=164	=164	=164	=164	=164	=164	=164
2C/_	.	2G/	.	2e/)	.	12cc\L]	.
.	.	.	.	.	.	12b\	.
.	.	.	.	.	.	12cc\J	.
.	.	.	.	.	.	12dd\L	.
.	.	.	.	.	.	12cc\	.
.	.	.	.	.	.	12b-X\J)	.
=165	=165	=165	=165	=165	=165	=165	=165
2C/_	.	2A/	.	(>2fn/	.	(12a/L	.
.	.	.	.	.	.	12g#X/	.
.	.	.	.	.	.	12a/J	.
.	.	.	.	.	.	12cc\L	.
.	.	.	.	.	.	12b-X\	.
.	.	.	.	.	.	12a\J	.
=166	=166	=166	=166	=166	=166	=166	=166
2C/_	.	2B-X/	.	2e/	.	12g/L	.
.	.	.	.	.	.	12f#X/	.
.	.	.	.	.	.	12g/J	.
.	.	.	.	.	.	12b-X/L	.
.	.	.	.	.	.	12a/	.
.	.	.	.	.	.	12g/J)	.
=167	=167	=167	=167	=167	=167	=167	=167
!	!	!LO:TX:b:t=cres-:problem:dynamics with extention lines	!LO:HP:t=cres-:ext=cd	!LO:TX:b:t=cres-:problem:dynamics with extention lines	!LO:HP:t=cres-:ext=cd	!LO:TX:b:t=cres-:problem:dynamics with extention lines	!LO:HP:t=cres-:ext=cd
!	!	!LO:N:vis=2.	!	!	!	!	!
2C/]	.	2A/	<	2c/	<	(12fn/L	<
.	.	.	.	.	.	12e/	.
.	.	.	.	.	.	12f/J	.
.	.	.	.	.	.	12a/L	.
.	.	.	.	.	.	12g/	.
.	.	.	.	.	.	12f/J	.
=168	=168	=168	=168	=168	=168	=168	=168
2C#X/	.	2G/	.	2B-X/)	.	12e/L	.
.	.	.	.	.	.	12d#X/	.
.	.	.	.	.	.	12e/J	.
.	.	.	.	.	.	12g/L	.
.	.	.	.	.	.	12f#X/	.
.	.	.	[	.	[	12e/J	[
=169	=169	=169	=169	=169	=169	=169	=169
4D/	.	4F#X/	f	4A/	f	4d/)	f
4DD/	.	4D/	sf	4A/ 4f#X 4dd	sf	4d/ 4a 4ff#X	sf
=170	=170	=170	=170	=170	=170	=170	=170
[2D^<\	.	4r	.	4r	.	([2dd^<\	.
.	.	4F#/	p	(>4d/	p	.	.
=171	=171	=171	=171	=171	=171	=171	=171
2D\_	p	4G/	.	4e/	.	2dd\_	p
.	.	4G#X/	.	4e#X/	.	.	.
=172	=172	=172	=172	=172	=172	=172	=172
2D\_	.	2A/	.	2f#/)	.	12dd\L]	.
.	.	.	.	.	.	12cc#X\	.
.	.	.	.	.	.	12dd\J	.
.	.	.	.	.	.	12ee-X\L	.
.	.	.	.	.	.	12dd\	.
.	.	.	.	.	.	12ccn\J)	.
=173	=173	=173	=173	=173	=173	=173	=173
2D\_	.	2B-X\	.	(>2g/	.	(12b-X\L	.
.	.	.	.	.	.	12a\	.
.	.	.	.	.	.	12b-\J	.
.	.	.	.	.	.	12dd\L	.
.	.	.	.	.	.	12cc\	.
.	.	.	.	.	.	12b-\J	.
=174	=174	=174	=174	=174	=174	=174	=174
2D\_	.	2c\	.	2f#/	.	12a\L	.
.	.	.	.	.	.	12g#X\	.
.	.	.	.	.	.	12a\J	.
.	.	.	.	.	.	12cc\L	.
.	.	.	.	.	.	12b-X\	.
.	.	.	.	.	.	12a\J)	.
!!LO:LB:g=original
=175	=175	=175	=175	=175	=175	=175	=175
!	!	!LO:TX:b:t=poco a poco cres_:ext=ud:problem:dynamics with extention lines	!LO:HP:b:t=poco a poco cres_	!LO:TX:b:t=poco a poco cres_:ext=ud:problem:dynamics with extention lines	!LO:HP:b:t=poco a poco cres_	!LO:TX:b:t=poco a poco cres_:ext=ud:problem:dynamics with extention lines	!LO:HP:b:t=poco a poco cres_
2D\_	.	2B-X\	<	2g/	<	(>12g/L	<
.	.	.	.	.	.	12f#/	.
.	.	.	.	.	.	12g/J	.
.	.	.	.	.	.	12b-X/L	.
.	.	.	.	.	.	12a/	.
.	.	.	.	.	.	12g/J	.
=176	=176	=176	=176	=176	=176	=176	=176
12D\L]	.	2Bn\	.	2fn/	.	2g#X/	.
(12C#X\	.	.	.	.	.	.	.
12D\J	.	.	.	.	.	.	.
12Fn\L	.	.	.	.	.	.	.
12E\	.	.	.	.	.	.	.
12D\J	.	.	.	.	.	.	.
=177	=177	=177	=177	=177	=177	=177	=177
2C/)	.	2A/	.	(>[2e/)	.	(12a\L)	.
.	.	.	.	.	.	12g#X\	.
.	.	.	.	.	.	12a\J	.
.	.	.	.	.	.	12cc\L	.
.	.	.	.	.	.	12b\	.
.	.	.	.	.	.	12a\J	.
=178	=178	=178	=178	=178	=178	=178	=178
(>2GG#X/	.	2E/	.	2e/_	.	12b\L	.
.	.	.	.	.	.	12a#X\	.
.	.	.	.	.	.	12b\J	.
.	.	.	.	.	.	12ee\L	.
.	.	.	.	.	.	12dd#X\	.
.	.	.	.	.	.	12ddn\J)	.
=179	=179	=179	=179	=179	=179	=179	=179
12AA/L	.	[2A/	.	2e/_	.	(2cc\	.
12GG#X/	.	.	.	.	.	.	.
12AA/J	.	.	.	.	.	.	.
12C/L	.	.	.	.	.	.	.
12BB/	.	.	.	.	.	.	.
12AA/J)	.	.	.	.	.	.	.
=180	=180	=180	=180	=180	=180	=180	=180
2GGn/	.	2A/_	.	2e/]	.	12cc#X\L	.
.	.	.	.	.	.	12b#\	.
.	.	.	.	.	.	12cc#X\J	.
.	.	.	.	.	.	12ee\L	.
.	.	.	.	.	.	12dd\	.
.	.	.	.	.	.	12cc#\J)	.
=181	=181	=181	=181	=181	=181	=181	=181
2FFn/	.	2A/_	.	2d/	.	(12dd\L	.
.	.	.	.	.	.	12cc#X\	.
.	.	.	.	.	.	12dd\J	.
.	.	.	.	.	.	12ffn\L	.
.	.	.	.	.	.	12ee\	.
.	.	.	.	.	.	12dd\J	.
=182	=182	=182	=182	=182	=182	=182	=182
2EE/	.	2A/_	[[	2c#X/)	[[	12ee\L	.
.	.	.	.	.	.	12dd#X\	.
.	.	.	.	.	.	12ee\J	.
.	.	.	.	.	.	12aa\L	.
.	.	.	.	.	.	12gg#X\	.
.	.	.	.	.	.	12ggn\J)	[[
=183	=183	=183	=183	=183	=183	=183	=183
12DD/L	.	4A/]	f	4d/	f	4ffn\	f
12FFn/	.	.	.	.	.	.	.
12AA/J	.	.	.	.	.	.	.
12D\L	.	4r	.	4r	.	4r	.
12Fn\	.	.	.	.	.	.	.
12A\J	.	.	.	.	.	.	.
=184	=184	=184	=184	=184	=184	=184	=184
2d\	.	2r	.	2r	.	12dd\L	.
.	.	.	.	.	.	12cc#X\	.
.	.	.	.	.	.	12dd\J	.
.	.	.	.	.	.	12ffn\L	.
.	.	.	.	.	.	12ee\	.
.	.	.	.	.	.	12dd\J	.
=185	=185	=185	=185	=185	=185	=185	=185
4D\	.	4r	.	4r	.	4ddd\	.
4r	.	(12dd\L	p	(4ffn\	p	(4gg#X\	p
.	.	12ee\	.	.	.	.	.
.	.	12dd\J	.	.	.	.	.
=186	=186	=186	=186	=186	=186	=186	=186
2r	.	12cc\L	.	4ee\	.	4aa\	.
.	.	12dd\	.	.	.	.	.
.	.	12cc\J	.	.	.	.	.
.	.	12b\L	.	4dd\	.	4gg#X\	.
.	.	12cc\	.	.	.	.	.
.	.	12b\J	.	.	.	.	.
=187	=187	=187	=187	=187	=187	=187	=187
2r	.	12a\L	.	4cc\	.	4aa\	.
.	.	12b\	.	.	.	.	.
.	.	12a\J	.	.	.	.	.
!	!	!	!	!LO:TX:b:t=e	!	!	!
.	.	12g#X\L	.	[4ee\	.	4bb\	.
.	.	12f#\	.	.	.	.	.
.	.	12g#\J)	.	.	.	.	.
!!LO:PB:g=original
=188	=188	=188	=188	=188	=188	=188	=188
4r	.	((4a\	.	(12ee\L])	.	4ccc\)	.
.	.	.	.	12ffn\	.	.	.
.	.	.	.	12ee\J	.	.	.
4D\	p	4fn\	.	12dd\L	.	4bb\	.
.	.	.	.	12ee\	.	.	.
.	.	.	.	12dd\J	.	.	.
=189	=189	=189	=189	=189	=189	=189	=189
[2E\	.	&(2e\	.	12cc\L	.	(2aa\	<
.	.	.	.	12b\	.	.	.
.	.	.	<	12cc\J	<	.	.
.	.	.	.	12ee\L	.	.	.
.	.	.	.	12dd\	.	.	.
.	.	.	.	12cc\J	.	.	.
=190	=190	=190	=190	=190	=190	=190	=190
2E\_	.	2d\&)	.	12b\L	.	2gg#X\	.
.	.	.	.	12a#X\	.	.	.
.	.	.	.	12b\J	.	.	.
.	.	.	.	12dd\L	.	.	.
.	.	.	.	12cc\	.	.	.
.	.	.	.	12b\J	.	.	.
=191	=191	=191	=191	=191	=191	=191	=191
12E\L]	.	(>2c#X\)	[	2b-X\)	[	[2ggn\	[
12D#X\	.	.	.	.	.	.	.
12E\J	.	.	.	.	.	.	.
12G\L	.	.	.	.	.	.	.
12Fn\	.	.	.	.	.	.	.
12E\J	.	.	.	.	.	.	.
=192	=192	=192	=192	=192	=192	=192	=192
2D\	.	2d\	>	[2a/	>	12gg\L])	>
.	.	.	.	.	.	(12ffn\	.
.	.	.	.	.	.	12ee\J	.
.	.	.	.	.	.	12ff\L	.
.	.	.	.	.	.	12gg\	.
.	.	.	]	.	]	12ff\J	]
=193	=193	=193	=193	=193	=193	=193	=193
4C\	.	4e\)	p	4a/]	p	12ee\L	p
.	.	.	.	.	.	12ffn\	.
.	.	.	.	.	.	12ee\J	.
4D\	.	(4fn\	.	(>4b/	.	12dd\L	.
.	.	.	.	.	.	12ee\	.
.	.	.	.	.	.	12dd\J	.
=194	=194	=194	=194	=194	=194	=194	=194
2E\	.	4e\	.	4a/	.	12cc\L	.
.	.	.	.	.	.	12dd\	.
.	.	.	.	.	.	12cc\J	.
.	.	4d\	.	4g#X/	.	12bn\L	.
.	.	.	.	.	.	12cc\	.
.	.	.	.	.	.	12b\J)	.
=195	=195	=195	=195	=195	=195	=195	=195
12AA/L	f	4c\)	.	4a/)	.	4a\	.
12C/	.	.	.	.	.	.	.
12E/J	.	.	.	.	.	.	.
12A\L	.	4r	.	4r	.	4r	.
12c\	.	.	.	.	.	.	.
12e\J	.	.	.	.	.	.	.
=196	=196	=196	=196	=196	=196	=196	=196
4a\	.	12A/L	f	2r	.	2r	.
.	.	12G#X/	.	.	.	.	.
.	.	12A/J	.	.	.	.	.
4r	.	12c/L	.	.	.	.	.
.	.	12B/	.	.	.	.	.
.	.	12A/J	.	.	.	.	.
=197	=197	=197	=197	=197	=197	=197	=197
2r	.	4a\	.	4r	.	4r	.
.	.	(12g\L	p	(4b-X\	p	(4cc#X\	p
.	.	12a\	.	.	.	.	.
.	.	12g\J	.	.	.	.	.
=198	=198	=198	=198	=198	=198	=198	=198
2r	.	12fn\L	.	4a\	.	4dd\	.
.	.	12g\	.	.	.	.	.
.	.	12f\J	.	.	.	.	.
.	.	12e\L	.	4g/	.	4cc#X\	.
.	.	12f\	.	.	.	.	.
.	.	12e\J	.	.	.	.	.
=199	=199	=199	=199	=199	=199	=199	=199
2r	.	12d\L	.	4f#X/)	.	4dd\	.
.	.	12e\	.	.	.	.	.
.	.	12d\J	.	.	.	.	.
.	.	12c#X\L	.	(>[4a/	.	4ee\	.
.	.	12B\	.	.	.	.	.
.	.	12c#\J)	.	.	.	.	.
=200	=200	=200	=200	=200	=200	=200	=200
4r	.	(4d\	.	12a/L]	.	4ffn\	.
.	.	.	.	12b-X/	.	.	.
.	.	.	.	12a/J	.	.	.
4GG/	.	4B-X/)	.	12g/L	.	4ee\	.
.	.	.	.	12a/	.	.	.
.	.	.	.	12g/J	.	.	.
!!LO:LB:g=original
=201	=201	=201	=201	=201	=201	=201	=201
[2AA/	.	[2A/	.	12fn/L	.	2dd\	.
.	.	.	.	12e/	.	.	.
.	.	.	.	12f/J	.	.	.
.	.	.	.	12a/L	.	.	.
.	.	.	.	12g/	.	.	.
.	.	.	.	12f/J	.	.	.
=202	=202	=202	=202	=202	=202	=202	=202
2AA/_	.	2A/]	.	12e/L	.	2cc#X\)	.
.	.	.	.	12d#X/	.	.	.
.	.	.	.	12e/J	.	.	.
.	.	.	.	12g/L	.	.	.
.	.	.	.	12fn/	.	.	.
.	.	.	.	12e/J)	.	.	.
=203	=203	=203	=203	=203	=203	=203	=203
!	!	!LO:TX:b:t=cres-:problem:dynamics with extention lines	!LO:HP:b:t=cres-:ext=cd	!LO:TX:b:t=cres-:problem:dynamics with extention lines	!LO:HP:b:t=cres-:ext=cd	!LO:TX:b:t=cres-:problem:dynamics with extention lines	!LO:HP:b:t=cres-:ext=cd
12AA/L]	.	[2F#X/	<	[2e-X/	<	([2ccn\	<
12GG#X/	.	.	.	.	.	.	.
12AA/J	.	.	.	.	.	.	.
12C/L	.	.	.	.	.	.	.
12BB/	.	.	.	.	.	.	.
12AA/J	.	.	.	.	.	.	.
=204	=204	=204	=204	=204	=204	=204	=204
4AA-X/	.	4F#/]	.	2e-/_	.	2cc\_	.
4GG/	.	4G/	.	.	.	.	.
=205	=205	=205	=205	=205	=205	=205	=205
[2FF#X/	.	2A/	.	2e-/_	.	12cc\L])	.
.	.	.	.	.	.	(12b\	.
.	.	.	.	.	.	12cc\J	.
.	.	.	.	.	.	12ee-X\L	.
.	.	.	.	.	.	12dd\	.
.	.	.	.	.	.	12cc\J	.
=206	=206	=206	=206	=206	=206	=206	=206
12FF#/L]	.	[2c\	.	2e-/]	.	[2aa\	.
12EE#X/	.	.	.	.	.	.	.
12FF#/J	.	.	.	.	.	.	.
12AA/L	.	.	.	.	.	.	.
12GG/	.	.	.	.	.	.	.
12FF#/J	.	.	[	.	[	.	[
=207	=207	=207	=207	=207	=207	=207	=207
[2GG/	.	2c\]	f	(>2en/	f	12aa\L])	f
.	.	.	.	.	.	12gg'\	.
.	.	.	.	.	.	12ffn'\J	.
.	.	.	.	.	.	12ee'\L	.
.	.	.	.	.	.	12dd'\	.
.	.	.	.	.	.	12cc'\J	.
=208	=208	=208	=208	=208	=208	=208	=208
2GG/]	.	4d\	>	2fn/)	>	12b'/L	>
.	.	.	.	.	.	12a'/	.
.	.	.	.	.	.	12g'/J	.
.	.	4B\	.	.	.	12fn'/L	.
.	.	.	.	.	.	12e'/	.
.	.	.	]	.	]	12d'/J	]
=209	=209	=209	=209	=209	=209	=209	=209
12C/L	.	4c\	p	(>2e/	p	4c/	p
12BB/	.	.	.	.	.	.	.
12C/J	.	.	.	.	.	.	.
12E\L	.	4r	.	.	.	4r	.
12D\	.	.	.	.	.	.	.
12C\J	.	.	.	.	.	.	.
=210	=210	=210	=210	=210	=210	=210	=210
4G\	.	2r	.	4B'/	.	2r	.
4r	.	.	.	4c'/)	.	.	.
=211	=211	=211	=211	=211	=211	=211	=211
!	!	!LO:SIC:s:v=fn	!	!	!	!	!
12Fn\L	.	(2f#^<\	.	(2a/	.	2r	.
12E\	.	.	.	.	.	.	.
12F\J	.	.	.	.	.	.	.
12A\L	.	.	.	.	.	.	.
12G\	.	.	.	.	.	.	.
12F\J	.	.	.	.	.	.	.
=212	=212	=212	=212	=212	=212	=212	=212
*	*	*	*	*	*	*tuplet	*
4c\	.	4e\)	.	4g/)	.	12r	.
.	.	.	.	.	.	12g'/L	.
.	.	.	.	.	.	12a'/J	.
*	*	*	*	*	*	*Xtuplet	*
4r	.	4r	.	4r	.	12b'\L	.
.	.	.	.	.	.	12cc'\	.
.	.	.	.	.	.	12dd'\J	.
=213	=213	=213	=213	=213	=213	=213	=213
12C/L	.	2r	.	(>2g/	.	2ee\	.
12BB/	.	.	.	.	.	.	.
12C/J	.	.	.	.	.	.	.
12E\L	.	.	.	.	.	.	.
12D\	.	.	.	.	.	.	.
12C\J	.	.	.	.	.	.	.
!!LO:LB:g=original
=214	=214	=214	=214	=214	=214	=214	=214
4G\	.	2r	.	2e/	.	(4b'\	.
4r	.	.	.	.	.	4cc'\)	.
=215	=215	=215	=215	=215	=215	=215	=215
12Fn\L	.	2r	.	2fn^/	.	(2aa^<\	.
12E\	.	.	.	.	.	.	.
12F\J	.	.	.	.	.	.	.
12A\L	.	.	.	.	.	.	.
12G\	.	.	.	.	.	.	.
12F\J	.	.	.	.	.	.	.
=216	=216	=216	=216	=216	=216	=216	=216
*	*	*tuplet	*	*	*	*	*
4c\	.	12r	.	4e/)	.	4gg\)	.
!	!	!	!LO:HP:a	!	!	!	!
.	.	12G'/L	<	.	.	.	.
.	.	12A'/J	.	.	.	.	.
*	*	*Xtuplet	*	*	*	*	*
4r	.	12B'\L	.	4r	.	4r	.
.	.	12c'\	.	.	.	.	.
.	.	12d'\J	[[	.	.	.	.
=217	=217	=217	=217	=217	=217	=217	=217
*tremolo	*	*	*	*tremolo	*	*tuplet	*
!	!	!	!	!	!	!LO:TUP:a	!
12C/L	.	2e\	ff	12ee\L	ff	12ccc\L	ff
12C/	.	.	.	12ee\	.	12ccc\	.
12C/J	.	.	.	12ee\J	.	12ccc\J	.
*	*	*	*	*	*	*Xtuplet	*
*rep	*	*	*	*rep	*	*rep	*
12C/L	.	.	.	12ee\L	.	12ccc\L	.
12C/	.	.	.	12ee\	.	12ccc\	.
12C/J	.	.	.	12ee\J	.	12ccc\J	.
*Xrep	*	*	*	*Xrep	*	*Xrep	*
=218	=218	=218	=218	=218	=218	=218	=218
*	*	*	*	*	*	*tremolo	*
*	*	*	*	*	*	*tuplet	*
!	!	!	!	!	!	!LO:TUP:a	!
12E\L	.	4B\	.	12dd\L	.	12gg#X\L	.
12E\	.	.	.	12dd\	.	12gg#\	.
12E\J	.	.	.	12dd\J	.	12gg#\J	.
*	*	*	*	*	*	*Xtuplet	*
12AA/L	.	4c\	.	12cc\L	.	12aa\L	.
12AA/	.	.	.	12cc\	.	12aa\	.
12AA/J	.	.	.	12cc\J	.	12aa\J	.
=219	=219	=219	=219	=219	=219	=219	=219
12Fn\L	.	(2a\	.	12cc\L	.	12ddd#X\L	.
12F\	.	.	.	12cc\	.	12ddd#\	.
12F\J	.	.	.	12cc\J	.	12ddd#\J	.
*rep	*	*	*	*	*	*rep	*
12F\L	.	.	.	12b\L	.	12ddd#\L	.
12F\	.	.	.	12b\	.	12ddd#\	.
12F\J	.	.	.	12b\J	.	12ddd#\J	.
*Xrep	*	*	*	*	*	*Xrep	*
=220	=220	=220	=220	=220	=220	=220	=220
12E\L	.	4g#X\)	.	12b\L	.	12eee\L	.
12E\	.	.	.	12b\	.	12eee\	.
12E\J	.	.	.	12b\J	.	12eee\J	.
*	*	*tremolo	*	*	*	*	*
*	*	*tuplet	*	*	*	*rep	*
!	!	!LO:TUP:a	!	!	!	!	!
12AA/L	.	12gn\L	.	12cc#X\L	.	12eee\L	.
12AA/	.	12g\	.	12cc#\	.	12eee\	.
12AA/J	.	12g\J	.	12cc#\J	.	12eee\J	.
*	*	*Xtuplet	*	*	*	*Xrep	*
=221	=221	=221	=221	=221	=221	=221	=221
12D\L	.	12f#X\L	.	12dd\L	.	12dddn\L	.
12D\	.	12f#\	.	12dd\	.	12ddd\	.
12D\J	.	12f#\J	.	12dd\J	.	12ddd\J	.
*	*	*	*	*	*	*rep	*
12GG/L	.	12fn\L	.	12b\L	.	12ddd\L	.
12GG/	.	12f\	.	12b\	.	12ddd\	.
12GG/J	.	12f\J	.	12b\J	.	12ddd\J	.
*	*	*	*	*	*	*Xrep	*
=222	=222	=222	=222	=222	=222	=222	=222
12C/L	.	12e\L	.	12cc\L	.	12ccc\L	.
12C/	.	12e\	.	12cc\	.	12ccc\	.
12C/J	.	12e\J	.	12cc\J	.	12ccc\J	.
*Xtremolo	*	*Xtremolo	*	*rep	*	*rep	*
12C/L	.	12e\L	.	12cc\L	.	12ccc\L	.
12BB/	.	12d\	.	12cc\	.	12ccc\	.
12C/J	.	12e\J	.	12cc\J	.	12ccc\J	.
*	*	*	*	*Xrep	*	*Xrep	*
=223	=223	=223	=223	=223	=223	=223	=223
*	*	*	*	*rep	*	*rep	*
12D\L	.	12fn\L	.	12cc\L	.	12ccc\L	.
12C\	.	12e\	.	12cc\	.	12ccc\	.
12D\J	.	12f\J	.	12cc\J	.	12ccc\J	.
12E\L	.	12g\L	.	12cc\L	.	12ccc\L	.
12D#X\	.	12f#X\	.	12cc\	.	12ccc\	.
12E\J	.	12g\J	.	12cc\J	.	12ccc\J	.
*	*	*	*	*Xrep	*	*Xrep	*
=224	=224	=224	=224	=224	=224	=224	=224
*tremolo	*	*tremolo	*	*	*	*rep	*
12Fn\L	.	12a\L	.	12cc\L	.	12ccc\L	.
12F\	.	12a\	.	12cc\	.	12ccc\	.
12F\J	.	12a\J	.	12cc\J	.	12ccc\J	.
*	*	*rep	*	*	*	*	*
12F#X\L	.	12a\L	.	12ee-X\L	.	12ccc\L	.
12F#\	.	12a\	.	12ee-\	.	12ccc\	.
12F#\J	.	12a\J	.	12ee-\J	.	12ccc\J	.
*	*	*Xrep	*	*	*	*Xrep	*
*	*	*	*	*	*	*Xtremolo	*
=225	=225	=225	=225	=225	=225	=225	=225
12G\L	.	12g\L	.	12een\L	.	2eee\	.
12G\	.	12g\	.	12ee\	.	.	.
12G\J	.	12g\J	.	12ee\J	.	.	.
*rep	*	*rep	*	*rep	*	*	*
12G\L	.	12g\L	.	12ee\L	.	.	.
12G\	.	12g\	.	12ee\	.	.	.
12G\J	.	12g\J	.	12ee\J	.	.	.
*Xrep	*	*Xrep	*	*Xrep	*	*	*
=226	=226	=226	=226	=226	=226	=226	=226
*rep	*	*	*	*	*	*	*
12G\L	.	12c\L	.	12G/L 12e	.	4ee\	.
12G\	.	12c\	.	12G/ 12e	.	.	.
12G\J	.	12c\J	.	12G/J 12e	.	.	.
*	*	*rep	*	*rep	*	*	*
12G\L	.	12c\L	.	12G/L 12e	.	[4aa\	.
12G\	.	12c\	.	12G/ 12e	.	.	.
12G\J	.	12c\J	.	12G/J 12e	.	.	.
*Xrep	*	*Xrep	*	*Xrep	*	*	*
=227	=227	=227	=227	=227	=227	=227	=227
*	*	*rep	*	*	*	*tuplet	*
!	!	!	!	!	!	!LO:TUP:a	!
12GG/L	.	12c\L	.	12G/L 12fn	.	12aa\L]	.
12GG/	.	12c\	.	12G/ 12f	.	12gg\	.
12GG/J	.	12c\J	.	12G/J 12f	.	12ff#X\J	.
*rep	*	*	*	*rep	*	*Xtuplet	*
12GG/L	.	12c\L	.	12G/L 12f	.	12aa\L	.
12GG/	.	12c\	.	12G/ 12f	.	12gg\	.
12GG/J	.	12c\J	.	12G/J 12f	.	12ff#\J	.
*Xrep	*	*Xrep	*	*Xrep	*	*	*
!!LO:LB:g=original
=228	=228	=228	=228	=228	=228	=228	=228
*rep	*	*	*	*rep	*	*	*
12GG/L	.	12B\L	.	12G/L 12fn	.	12aa\L	.
12GG/	.	12B\	.	12G/ 12f	.	12gg\	.
12GG/J	.	12B\J	.	12G/J 12f	.	12ff#\J	.
*	*	*rep	*	*	*	*	*
12GG/L	.	12B\L	.	12G/L 12f	.	12gg\L	.
12GG/	.	12B\	.	12G/ 12f	.	12ffn\	.
12GG/J	.	12B\J	.	12G/J 12f	.	12dd\J	.
*Xrep	*	*Xrep	*	*Xrep	*	*	*
*Xtremolo	*	*	*	*	*	*	*
=229	=229	=229	=229	=229	=229	=229	=229
2C/	f > ]]	12c\L	f >	12G/L 12e	f >	4cc\	.
.	.	12c\	.	12G/ 12e	.	.	.
.	.	12c\J	.	12G/J 12e	.	.	.
*	*	*rep	*	*rep	*	*	*
.	.	12c\L	.	12G/L 12e	.	4r	.
.	.	12c\	.	12G/ 12e	.	.	.
.	.	12c\J	]	12G/J 12e	]]	.	.
*	*	*Xrep	*	*Xrep	*	*	*
=230	=230	=230	=230	=230	=230	=230	=230
*	*	*rep	*	*rep	*	*	*
4EE/	p	12c\L	p	12G/L 12e	p	2r	.
.	.	12c\	.	12G/ 12e	.	.	.
.	.	12c\J	.	12G/J 12e	.	.	.
4GG/	.	12c\L	.	12G/L 12e	.	.	.
.	.	12c\	.	12G/ 12e	.	.	.
.	.	12c\J	.	12G/J 12e	.	.	.
*	*	*Xrep	*	*Xrep	*	*	*
=231	=231	=231	=231	=231	=231	=231	=231
*	*	*rep	*	*rep	*	*	*
4CC/	.	12c\L	.	12G/L 12e	.	(2eee\	p
!	!	!	!	!	!	!LO:TX:b:i:t=dol&colon;	!
.	.	12c\	.	12G/ 12e	.	.	.
.	.	12c\J	.	12G/J 12e	.	.	.
4r	.	12c\L	.	12G/L 12e	.	.	.
.	.	12c\	.	12G/ 12e	.	.	.
.	.	12c\J	.	12G/J 12e	.	.	.
*	*	*Xrep	*	*Xrep	*	*	*
=232	=232	=232	=232	=232	=232	=232	=232
*	*	*rep	*	*rep	*	*	*
2r	.	12c\L	.	12G/L 12e	.	4bb\	.
.	.	12c\	.	12G/ 12e	.	.	.
.	.	12c\J	.	12G/J 12e	.	.	.
.	.	12c\L	.	12G/L 12e	.	4ccc\)	.
.	.	12c\	.	12G/ 12e	.	.	.
.	.	12c\J	.	12G/J 12e	.	.	.
*	*	*Xrep	*	*Xrep	*	*	*
=233	=233	=233	=233	=233	=233	=233	=233
*	*	*rep	*	*rep	*	*	*
2r	.	12c\L	.	12G/L 12e	.	12gg\L	.
.	.	12c\	.	12G/ 12e	.	12ff#\	.
.	.	12c\J	.	12G/J 12e	.	12aa\J	.
.	.	12c\L	.	12G/L 12e	.	[4gg\	.
.	.	12c\	.	12G/ 12e	.	.	.
.	.	12c\J	.	12G/J 12e	.	.	.
*	*	*Xrep	*	*Xrep	*	*	*
=234	=234	=234	=234	=234	=234	=234	=234
*	*	*rep	*	*rep	*	*	*
2r	.	12c\L	.	12G/L 12e	.	12gg\L]	.
.	.	12c\	.	12G/ 12e	.	12dd#X\	.
.	.	12c\J	.	12G/J 12e	.	12ffn\J	.
.	.	12c\L	.	12G/L 12e	.	4ee\	.
.	.	12c\	.	12G/ 12e	.	.	.
.	.	12c\J	.	12G/J 12e	.	.	.
*	*	*Xrep	*	*Xrep	*	*	*
=235	=235	=235	=235	=235	=235	=235	=235
*	*	*rep	*	*rep	*	*	*
2r	.	12c\L	.	12G/L 12e	.	12cc\L	.
.	.	12c\	.	12G/ 12e	.	12b\	.
.	.	12c\J	.	12G/J 12e	.	12cc\J	.
.	.	12c\L	.	12G/L 12e	.	12ee\L	.
.	.	12c\	.	12G/ 12e	.	12dd\	.
.	.	12c\J	.	12G/J 12e	.	12cc\J	.
*	*	*Xrep	*	*Xrep	*	*	*
=236	=236	=236	=236	=236	=236	=236	=236
*	*	*rep	*	*rep	*	*	*
12C/L	.	12c\L	.	12G/L 12e	.	4ccc\	.
12BB/	.	12c\	.	12G/ 12e	.	.	.
12C/J	.	12c\J	.	12G/J 12e	.	.	.
12E\L	.	12c\L	.	12G/L 12e	.	(4cc\	.
12D\	.	12c\	.	12G/ 12e	.	.	.
12C\J	.	12c\J	.	12G/J 12e	.	.	.
*	*	*Xrep	*	*Xrep	*	*	*
=237	=237	=237	=237	=237	=237	=237	=237
2G^<\	p	12d\L	p	12G/L 12fn	p	4b\)	.
.	.	12d\	.	12G/ 12f	.	.	.
.	.	12d\J	.	12G/J 12f	.	.	.
*	*	*rep	*	*rep	*	*	*
.	.	12d\L	.	12G/L 12f	.	4r	.
.	.	12d\	.	12G/ 12f	.	.	.
.	.	12d\J	.	12G/J 12f	.	.	.
*	*	*Xrep	*	*Xrep	*	*	*
=238	=238	=238	=238	=238	=238	=238	=238
*	*	*rep	*	*rep	*	*	*
4BB/	.	12d\L	.	12G/L 12fn	.	2r	.
.	.	12d\	.	12G/ 12f	.	.	.
.	.	12d\J	.	12G/J 12f	.	.	.
4D/	.	12d\L	.	12G/L 12f	.	.	.
.	.	12d\	.	12G/ 12f	.	.	.
.	.	12d\J	.	12G/J 12f	.	.	.
*	*	*Xrep	*	*Xrep	*	*	*
=239	=239	=239	=239	=239	=239	=239	=239
*	*	*	*	*rep	*	*	*
4GG/	.	12B/L	.	12G/L 12fn	.	(2fffn\	.
.	.	12B/	.	12G/ 12f	.	.	.
.	.	12B/J	.	12G/J 12f	.	.	.
*	*	*rep	*	*	*	*	*
4r	.	12B/L	.	12G/L 12f	.	.	.
.	.	12B/	.	12G/ 12f	.	.	.
.	.	12B/J	.	12G/J 12f	.	.	.
*	*	*Xrep	*	*Xrep	*	*	*
=240	=240	=240	=240	=240	=240	=240	=240
*	*	*rep	*	*rep	*	*	*
2r	.	12B/L	.	12G/L 12fn	.	4ccc#X\	.
.	.	12B/	.	12G/ 12f	.	.	.
.	.	12B/J	.	12G/J 12f	.	.	.
.	.	12B/L	.	12G/L 12f	.	4ddd\)	.
.	.	12B/	.	12G/ 12f	.	.	.
.	.	12B/J	.	12G/J 12f	.	.	.
*	*	*Xrep	*	*Xrep	*	*	*
=241	=241	=241	=241	=241	=241	=241	=241
*	*	*rep	*	*rep	*	*	*
2r	.	12B/L	.	12G/L 12fn	.	(4aa#X\	.
.	.	12B/	.	12G/ 12f	.	.	.
.	.	12B/J	.	12G/J 12f	.	.	.
.	.	12B/L	.	12G/L 12f	.	4bb\	.
.	.	12B/	.	12G/ 12f	.	.	.
.	.	12B/J	.	12G/J 12f	.	.	.
*	*	*Xrep	*	*Xrep	*	*	*
=242	=242	=242	=242	=242	=242	=242	=242
*	*	*rep	*	*rep	*	*	*
12GG/L	.	12B/L	.	12G/L 12fn	.	4ff#\	.
12FF#/	.	12B/	.	12G/ 12f	.	.	.
12GG/J	.	12B/J	.	12G/J 12f	.	.	.
12BB/L	.	12B/L	.	12G/L 12f	.	4gg\)	.
12AA/	.	12B/	.	12G/ 12f	.	.	.
12GG/J	.	12B/J	.	12G/J 12f	.	.	.
*	*	*Xrep	*	*Xrep	*	*	*
!!LO:PB:g=original
=243	=243	=243	=243	=243	=243	=243	=243
*	*	*rep	*	*rep	*	*	*
4G\	.	12B/L	.	12G/L 12fn	.	(12dd\L	.
.	.	12B/	.	12G/ 12f	.	12cc#X\	.
.	.	12B/J	.	12G/J 12f	.	12dd\J	.
4r	.	12B/L	.	12G/L 12f	.	12ffn\L	.
.	.	12B/	.	12G/ 12f	.	12ee\	.
.	.	12B/J	.	12G/J 12f	.	12dd\J	.
*	*	*Xrep	*	*Xrep	*	*	*
=244	=244	=244	=244	=244	=244	=244	=244
*	*	*rep	*	*rep	*	*	*
4GG/	.	12B/L	.	12G/L 12fn	.	4aa\	.
.	.	12B/	.	12G/ 12f	.	.	.
.	.	12B/J	.	12G/J 12f	.	.	.
4r	.	12B/L	.	12G/L 12f	.	8gg\L	.
.	.	12B/	.	12G/ 12f	.	.	.
.	.	.	.	.	.	8ffn\J	.
.	.	12B/J	.	12G/J 12f	.	.	.
*	*	*Xrep	*	*Xrep	*	*	*
=245	=245	=245	=245	=245	=245	=245	=245
12C/L	.	12c\L	.	12G/L 12e	.	4ee\)	.
12BB/	.	12c\	.	12G/ 12e	.	.	.
12C/J	.	12c\J	.	12G/J 12e	.	.	.
*	*	*rep	*	*rep	*	*	*
12E\L	.	12c\L	.	12G/L 12e	.	4r	.
12D\	.	12c\	.	12G/ 12e	.	.	.
12C\J	.	12c\J	.	12G/J 12e	.	.	.
*	*	*Xrep	*	*Xrep	*	*	*
=246	=246	=246	=246	=246	=246	=246	=246
*	*	*rep	*	*	*	*	*
4c\	.	12c\L	.	12e/L	.	[2eee\	.
.	.	12c\	.	12e/	.	.	.
.	.	12c\J	.	12e/J	.	.	.
4C/	.	12c\L	.	12e/L	.	.	.
.	.	12c\	.	12e/	.	.	.
.	.	12c\J	.	12e/J	.	.	.
*	*	*Xrep	*	*	*	*	*
=247	=247	=247	=247	=247	=247	=247	=247
2BB/	.	12d\L	.	12g#X/L	.	2eee\]	.
.	.	12d\	.	12g#/	.	.	.
.	.	12d\J	.	12g#/J	.	.	.
*	*	*rep	*	*	*	*	*
.	.	12d\L	.	12g#/L	.	.	.
.	.	12d\	.	12g#/	.	.	.
.	.	12d\J	.	12g#/J	.	.	.
*	*	*Xrep	*	*	*	*	*
=248	=248	=248	=248	=248	=248	=248	=248
*	*	*rep	*	*rep	*	*	*
2E\	.	12d\L	.	12g#X/L	.	12bb\L	.
.	.	12d\	.	12g#/	.	12aa#X\	.
.	.	12d\J	.	12g#/J	.	12bb\J	.
.	.	12d\L	.	12g#/L	.	12ddd\L	.
.	.	12d\	.	12g#/	.	12ccc\	.
.	.	12d\J	.	12g#/J	.	12bb\J	.
*	*	*Xrep	*	*Xrep	*	*	*
=249	=249	=249	=249	=249	=249	=249	=249
12AA/L	.	12c\L	.	12a/L	.	4ccc\	.
12GG#X/	.	12c\	.	12a/	.	.	.
12AA/J	.	12c\J	.	12a/J	.	.	.
*	*	*rep	*	*rep	*	*	*
12C/L	.	12c\L	.	12a/L	.	4r	.
12BB/	.	12c\	.	12a/	.	.	.
12AA/J	.	12c\J	.	12a/J	.	.	.
*	*	*Xrep	*	*Xrep	*	*	*
=250	=250	=250	=250	=250	=250	=250	=250
*	*	*rep	*	*rep	*	*	*
4A\	.	12c\L	.	12a/L	.	[2ccc\	.
.	.	12c\	.	12a/	.	.	.
.	.	12c\J	.	12a/J	.	.	.
4AA/	.	12c\L	.	12a/L	.	.	.
.	.	12c\	.	12a/	.	.	.
.	.	12c\J	.	12a/J	.	.	.
*	*	*Xrep	*	*Xrep	*	*	*
=251	=251	=251	=251	=251	=251	=251	=251
2GG/	.	12e\L	.	12b-X\L	.	(2ccc\]	.
.	.	12e\	.	12b-\	.	.	.
.	.	12e\J	.	12b-\J	.	.	.
*	*	*rep	*	*	*	*	*
.	.	12e\L	.	12b-\L	.	.	.
.	.	12e\	.	12b-\	.	.	.
.	.	12e\J	.	12b-\J	.	.	.
*	*	*Xrep	*	*	*	*	*
=252	=252	=252	=252	=252	=252	=252	=252
*	*	*rep	*	*rep	*	*	*
2C/	.	12e\L	.	12b-X\L	.	12gg\L)	.
.	.	12e\	.	12b-\	.	12ff#X\	.
.	.	12e\J	.	12b-\J	.	12gg\J	.
.	.	12e\L	.	12b-\L	.	12bb-X\L	.
.	.	12e\	.	12b-\	.	12aa\	.
.	.	12e\J	.	12b-\J	.	12gg\J	.
*	*	*Xrep	*	*Xrep	*	*	*
*	*	*Xtremolo	*	*Xtremolo	*	*	*
=253	=253	=253	=253	=253	=253	=253	=253
12FFn/L	.	4fn\	.	4a/	.	4aa\	.
12EE/	.	.	.	.	.	.	.
12FF/J	.	.	.	.	.	.	.
12AA/L	.	4r	.	4r	.	4r	.
12GG/	.	.	.	.	.	.	.
12FF/J	.	.	.	.	.	.	.
=254	=254	=254	=254	=254	=254	=254	=254
4Fn\	.	[2a\	.	4r	.	(4aa\	.
*	*	*	*	*tuplet	*	*	*
!	!	!	!	!LO:TUP:a	!	!	!
4E\	.	.	.	(12cc#X\L	.	4gg\	.
.	.	.	.	12b\	.	.	.
.	.	.	.	12cc#\J	.	.	.
*	*	*	*	*Xtuplet	*	*	*
=255	=255	=255	=255	=255	=255	=255	=255
2D\	.	4a\]	.	4dd\	.	2ffn\)	.
.	.	[4g\	.	12b\L	.	.	.
.	.	.	.	12a\	.	.	.
.	.	.	.	12b\J	.	.	.
=256	=256	=256	=256	=256	=256	=256	=256
!LO:TX:a:t=P:problem:początek ligatury na górze	!	!LO:TX:b:t=cres-:problem:dynamics with extention lines	!LO:HP:b:t=cres-:ext=cd	!LO:TX:b:t=cres-:problem:dynamics with extention lines	!LO:HP:b:t=cres-:ext=cd	!LO:TX:b:t=cres-:problem:dynamics with extention lines	!LO:HP:b:t=cres-:ext=cd
[2C/	.	2g\_	<	4ccn\	<	[2ee\	<
.	.	.	.	4b\)	.	.	.
!!LO:LB:g=original
=257	=257	=257	=257	=257	=257	=257	=257
2C/_	.	2g\_	.	[2a#X\	.	12ee\L]	.
.	.	.	.	.	.	12dd#X\	.
.	.	.	.	.	.	12ee\J	.
.	.	.	.	.	.	12gg\L	.
.	.	.	.	.	.	12ff#\	.
.	.	.	.	.	.	12ee\J	.
=258	=258	=258	=258	=258	=258	=258	=258
2C/]	.	12g\L]	.	2a#\]	.	(2eee\	.
.	.	12e\	.	.	.	.	.
.	.	12f#\J	.	.	.	.	.
.	.	12g\L	.	.	.	.	.
.	.	12f#\	.	.	.	.	.
.	.	12e\J	[	.	[	.	[
=259	=259	=259	=259	=259	=259	=259	=259
*	*	*	*	*	*	*8va	*
12BB/L	.	4d#X\	f	4b\	f	4bbb\)	f
12AA#X/	.	.	.	.	.	.	.
12BB/J	.	.	.	.	.	.	.
12D#X/L	.	4r	.	4r	.	4r	.
12C#X/	.	.	.	.	.	.	.
12BB/J	.	.	.	.	.	.	.
*	*	*	*	*	*	*X8va	*
=260	=260	=260	=260	=260	=260	=260	=260
2B\	.	2r	.	2r	.	12b\L	.
.	.	.	.	.	.	12a#X\	.
.	.	.	.	.	.	12b\J	.
.	.	.	.	.	.	12dd#X\L	.
.	.	.	.	.	.	12cc#X\	.
.	.	.	.	.	.	12b\J	.
=261	=261	=261	=261	=261	=261	=261	=261
[2BB/	.	2r	.	4r	.	4bb\	.
.	.	.	.	(12dd#X\L	.	(4aa\	.
.	.	.	.	12cc#X\	.	.	.
.	.	.	.	12dd#\J	.	.	.
=262	=262	=262	=262	=262	=262	=262	=262
2BB/_	.	4r	.	4ee\	.	4gg\	.
.	.	4a\	.	12ccn\L	.	4ff#\	.
.	.	.	.	12ddn\	.	.	.
.	.	.	.	12cc\J	.	.	.
=263	=263	=263	=263	=263	=263	=263	=263
!	!	!LO:TX:b:t=dim-:problem:dynamics with extention lines	!LO:HP:b:t=dim-:ext=cd	!LO:TX:b:t=dim-:problem:dynamics with extention lines	!LO:HP:b:t=dim-:ext=cd	!LO:TX:b:t=dim-:problem:dynamics with extention lines	!LO:HP:b:t=dim-:ext=cd
2BB/_	.	12g\L	>	12b\L	>	4ee\	>
.	.	12a\	.	12cc\	.	.	.
.	.	12g\J	.	12b\J	.	.	.
.	.	12f#\L	.	12a\L	.	4dd#X\	.
.	.	12g\	.	12b\	.	.	.
.	.	12f#\J	.	12a\J)	.	.	.
=264	=264	=264	=264	=264	=264	=264	=264
2BB/_	.	[2e\	.	(>[2g/	.	4ee\)	.
.	.	.	.	.	.	(12ddn\L	.
.	.	.	.	.	.	12ee\	.
.	.	.	.	.	.	12dd\J	.
=265	=265	=265	=265	=265	=265	=265	=265
2BB/_	.	2e\_	.	2g/_	.	12cc\L	.
.	.	.	.	.	.	12dd\	.
.	.	.	.	.	.	12cc\J	.
.	.	.	.	.	.	12b\L	.
.	.	.	.	.	.	12cc\	.
.	.	.	.	.	.	12b\J	.
=266	=266	=266	=266	=266	=266	=266	=266
2BB/_	.	12e\L]	.	12g/L]	.	(2a#X\	.
.	.	12d#X\	.	12f#/	.	.	.
.	.	12c#X\J	.	12e/J	.	.	.
*	*	*rep	*	*	*	*	*
.	.	12e\L	.	12g/L	.	.	.
.	.	12d#\	.	12f#/	.	.	.
.	.	12c#\J	]]	12e/J	]]	.	]
*	*	*Xrep	*	*	*	*	*
=267	=267	=267	=267	=267	=267	=267	=267
12BB/L]	.	4B\	f	4d#X/)	.	4b\))	f
12AA#X/	.	.	.	.	.	.	.
12BB/J	.	.	.	.	.	.	.
12D#X/L	.	4r	.	4r	.	4r	.
12C#X/	.	.	.	.	.	.	.
12BB/J	.	.	.	.	.	.	.
=268	=268	=268	=268	=268	=268	=268	=268
2B\	.	12B/L	f	2r	.	2r	.
.	.	12A#X/	.	.	.	.	.
.	.	12B/J	.	.	.	.	.
.	.	12d#X\L	.	.	.	.	.
.	.	12c#X\	.	.	.	.	.
.	.	12B\J	.	.	.	.	.
=269	=269	=269	=269	=269	=269	=269	=269
[2BB/	.	4b\	.	4r	.	4r	.
!	!	!LO:TX:b:t=decres-:problem:dynamics with extention lines	!LO:HP:b:t=decres-:ext=cd	!LO:TX:b:t=decres-:problem:dynamics with extention lines	!LO:HP:b:t=decres-:ext=cd	!LO:TX:b:t=decres-:problem:dynamics with extention lines	!LO:HP:b:t=decres-:ext=cd
.	.	(4a\	>	(4cc\	>	(12ff#\L	>
.	.	.	.	.	.	12gg\	.
.	.	.	.	.	.	12ff#\J	.
=270	=270	=270	=270	=270	=270	=270	=270
2BB/_	.	4g\	.	4b\	.	12ee\L	.
.	.	.	.	.	.	12ff#\	.
.	.	.	.	.	.	12ee\J	.
.	.	4f#\)	.	4a\	.	12dd\L	.
.	.	.	.	.	.	12ee\	.
.	.	.	.	.	.	12dd\J	.
!!LO:LB:g=original
=271	=271	=271	=271	=271	=271	=271	=271
2BB/_	.	[2e\	.	[2g/	.	12cc\L	.
.	.	.	.	.	.	12dd\	.
.	.	.	.	.	.	12cc\J	.
.	.	.	.	.	.	12b\L	.
.	.	.	.	.	.	12cc\	.
.	.	.	.	.	.	12b\J	.
=272	=272	=272	=272	=272	=272	=272	=272
2BB/_	.	2e\_	.	2g/_	.	4a#X\)	.
.	.	.	]	.	]	(4b\	]
=273	=273	=273	=273	=273	=273	=273	=273
12BB/L]	.	4e\]	.	2g/])	<	[2cc#X\	<
!	!LO:HP:a	!	!	!	!	!	!
12AA#X/	<	.	.	.	.	.	.
12BB/J	.	.	.	.	.	.	.
12E\L	.	4r	.	.	.	.	.
12D#X\	.	.	.	.	.	.	.
12E\J	.	.	.	.	.	.	.
=274	=274	=274	=274	=274	=274	=274	=274
2F#\	[	2A#X/	.	12f#/L	[	2cc#\]	[
.	.	.	.	12g/	.	.	>
!	!LO:HP:a	!	!	!	!	!	!
.	>	.	.	12f#/J	>	.	.
.	.	.	.	12e/L	.	.	.
.	.	.	.	12f#/	.	.	.
.	]	.	.	12e/J	]]	.	]
=275	=275	=275	=275	=275	=275	=275	=275
!	!LO:DY:a	!	!	!	!	!	!
[2BB/	p	4B/	.	(>4d#X/	p	(12b\L)	p
.	.	.	.	.	.	12a#X\	.
.	.	.	.	.	.	12b\J	.
.	.	4G/	.	4e/	.	12cc#X\L	.
.	.	.	.	.	.	12dd#X\	.
.	.	.	.	.	.	12cc#\J	.
=276	=276	=276	=276	=276	=276	=276	=276
*	*	*	*	*	*	*rep	*
2BB/_	.	4F#/	.	4d#X/	.	12b\L	.
.	.	.	.	.	.	12a#X\	.
.	.	.	.	.	.	12b\J	.
.	.	4G/	.	4e/	.	12cc#X\L	.
.	.	.	.	.	.	12dd#X\	.
.	.	.	.	.	.	12cc#\J	.
*	*	*	*	*	*	*Xrep	*
=277	=277	=277	=277	=277	=277	=277	=277
!	!	!LO:TX:b:t=dim-:problem:dynamics with extention lines	!LO:HP:b:t=dim-:ext=cd	!LO:TX:b:t=dim-:problem:dynamics with extention lines	!LO:HP:b:t=dim-:ext=cd	!LO:TX:b:t=dim-:problem:dynamics with extention lines	!LO:HP:b:t=dim-:ext=cd
2BB/_	.	12F#/L	>	12d#X/L)	>	(4b\)	>
.	.	12E/	.	12c#X/	.	.	.
.	.	12F#/J	.	12d#/J	.	.	.
.	.	12G/L	.	12e/L	.	4a#X\	.
.	.	12A/	.	12f#/	.	.	.
.	.	12G/J	.	12e/J	.	.	.
=278	=278	=278	=278	=278	=278	=278	=278
*	*	*rep	*	*rep	*	*	*
2BB/]	.	12F#/L	.	12d#X/L	.	4b\	.
.	.	12E/	.	12c#X/	.	.	.
.	.	12F#/J	.	12d#/J	.	.	.
.	.	12G/L	.	12e/L	.	4a#X\	.
.	.	12A/	.	12f#/	.	.	.
.	.	12G/J	]	12e/J	]	.	]
*	*	*Xrep	*	*Xrep	*	*	*
=279	=279	=279	=279	=279	=279	=279	=279
12BB/L	.	4F#/	f	4d#X/	f	4b\)	f
12AA#X/	.	.	.	.	.	.	.
12BB/J	.	.	.	.	.	.	.
!LO:TX:a:t=con fuoco	!	!	!	!	!	!	!
12D#X\L	.	4r	.	4r	.	4r	.
12C#X\	.	.	.	.	.	.	.
12BB\J	.	.	.	.	.	.	.
=280	=280	=280	=280	=280	=280	=280	=280
!	!	!LO:TX:a:i:t=con fuoco	!	!	!	!	!
4B\	.	12B\L	.	2r	.	2r	.
.	.	12A#X\	.	.	.	.	.
.	.	12B\J	.	.	.	.	.
4r	.	12d#X\L	.	.	.	.	.
.	.	12c#X\	.	.	.	.	.
.	.	12B\J	.	.	.	.	.
=281	=281	=281	=281	=281	=281	=281	=281
!	!	!	!	!LO:TX:b:i:t=con fuoco	!	!	!
[2BB\ [2F#	.	4b\	.	12b\L	.	2r	.
.	.	.	.	12a#X\	.	.	.
.	.	.	.	12b\J	.	.	.
.	.	4r	.	12dd#X\L	.	.	.
.	.	.	.	12cc#X\	.	.	.
.	.	.	.	12b\J	.	.	.
=282	=282	=282	=282	=282	=282	=282	=282
!	!	!	!	!	!	!LO:TX:b:i:t=con fuoco	!
2BB\_ 2F#_	.	[2d#X\	.	4bb\	.	12bb\L	.
.	.	.	.	.	.	12aa#X\	.
.	.	.	.	.	.	12bb\J	.
.	.	.	.	4r	.	12ddd#X\L	.
.	.	.	.	.	.	12ccc#X\	.
.	.	.	.	.	.	12bb\J	.
=283	=283	=283	=283	=283	=283	=283	=283
!	!	!	!	!	!	!LO:TX:t=P:problem:flażolet	!
4BB\] 4F#]	.	4d#\]	.	4r	.	4bbbo\	.
4BB\ 4F#	sf	4B\ 4f#	sf	4B\ 4f# 4dd#X 4bb	sf	4r	.
!!LO:LB:g=original
=284	=284	=284	=284	=284	=284	=284	=284
2r	.	4a\	f	2r	.	4aa\	f
.	.	12g\L	.	.	.	12gg\L	.
.	.	12f#\	.	.	.	12ff#\	.
.	.	12e\J	.	.	.	12ee\J	.
=285	=285	=285	=285	=285	=285	=285	=285
2r	.	12d#X\L	.	2r	.	12dd#X\L	.
.	.	12e\	.	.	.	12ee\	.
.	.	12f#\J	.	.	.	12ff#\J	.
.	.	12e\L	.	.	.	12ee\L	.
.	.	12d#\	.	.	.	12dd#\	.
!	!	!LO:TX:b:t=dim_:problem:dynamics with extention lines	!LO:HP:b:t=dim_	!	!	!LO:TX:b:t=dim-:problem:dynamics with extention lines	!LO:HP:b:t=dim_
.	.	12c\J	>	.	.	12cc\J	>
=286	=286	=286	=286	=286	=286	=286	=286
2r	.	12B/L	.	2r	.	12b\L	.
.	.	12c/	.	.	.	12cc\	.
.	.	12B/J	.	.	.	12b\J	.
.	.	12A/L	.	.	.	12a/L	.
.	.	12G/	.	.	.	12g/	.
.	.	12F#/J	]]	.	.	12f#/J	]]
=287	=287	=287	=287	=287	=287	=287	=287
12E\L	p	12E/L	p	12e/L	.	12e/L	p
12D#X\	.	12D#X/	.	12d#X/	.	12d#X/	.
12E\J	.	12E/J	.	12e/J	.	12e/J	.
12G\L	.	12G/L	.	12g/L	.	12g/L	.
12F#\	.	12F#/	.	12f#/	.	12f#/	.
12E\J	.	12E/J	.	12e/J	.	12e/J	.
=288	=288	=288	=288	=288	=288	=288	=288
4B\	.	4B\	.	4b\	.	4b\	.
4r	.	4r	.	4r	.	4r	.
=289	=289	=289	=289	=289	=289	=289	=289
!	!	!	!	!LO:TX:a:t=Unisono:problem:na pięciolinii, zamiast nut	!	!	!
!	!	!	!	!LO:TX:t=P:problem:t. 289-291 zapisane jako Unisono 1 skrzypiec	!	!	!
12E\L	.	12e\L	.	12e/Lyy	.	12e/L	.
12D#X\	.	12d#X\	.	12d#X/yy	.	12d#X/	.
12E\J	.	12e\J	.	12e/Jyy	.	12e/J	.
12G\L	.	12g\L	.	12g/Lyy	.	12g/L	.
12F#\	.	12f#\	.	12f#/yy	.	12f#/	.
12E\J	.	12e\J	.	12e/Jyy	.	12e/J	.
=290	=290	=290	=290	=290	=290	=290	=290
4BB/	.	4B\	.	4B/yy	.	4B/	.
4r	.	4r	.	4ryy	.	4r	.
=291	=291	=291	=291	=291	=291	=291	=291
12E\L	.	12e\L	.	12e/Lyy	.	12e/L	.
12D#X\	.	12d#X\	.	12d#X/yy	.	12d#X/	.
12E\J	.	12e\J	.	12e/Jyy	.	12e/J	.
12G\L	.	12g\L	.	12g/Lyy	.	12g/L	.
12F#\	.	12f#\	.	12f#/yy	.	12f#/	.
12E\J	.	12e\J	.	12e/Jyy	.	12e/J	.
=292	=292	=292	=292	=292	=292	=292	=292
[2F#\	.	4f#\	.	4f#/	.	12f#/L	.
!LO:TX:t=poco riten:dur=3qe:ext=ud:problem:dynamics with extention lines	!	!LO:TX:t=poco riten:dur=3qe:ext=ud:problem:dynamics with extention lines	!	!LO:TX:t=poco riten:dur=3qe:ext=ud:problem:dynamics with extention lines	!	!	!
.	.	.	<	.	<	12b/	<
.	.	.	.	.	.	12dd/J	.
.	.	(4d\	.	([4b\	.	(12ff#\L	.
.	.	.	.	.	.	12ff#'\	.
.	.	.	.	.	.	12ff#'\J	.
=293	=293	=293	=293	=293	=293	=293	=293
2F#\_	.	4c#X\	[	4b\]	[	12ff#'\L	.
.	.	.	.	.	.	12ff#'\	[
.	.	.	>	.	>	12ff#'\J	>
!	!	!	!	!	!	!LO:TUP:a:problem:klamra łukowa	!
.	.	4e\	.	4a#X\	.	12ff#\L	.
.	.	.	.	.	.	12cc#X\	.
.	.	.	]]	.	]]	12dd\J)	]]
=294	=294	=294	=294	=294	=294	=294	=294
4.BB;\ 4.F#]	.	4.d;\)	p	4.b;\)	p	4b;\	p
.	.	.	.	.	.	(>16qqdd/LL	.
.	.	.	.	.	.	16qqff#/JJ	.
.	.	.	.	.	.	8bb\)	.
8r;	.	8r;	.	8r;	.	8r;	.
!!LO:PB:g=original
=295	=295	=295	=295	=295	=295	=295	=295
4r	.	2r	.	2r	.	12e/L	p
.	.	.	.	.	.	12d#X/	.
.	.	.	.	.	.	12e/J	.
[4E\	p	.	.	.	.	12g/L	.
.	.	.	.	.	.	12f#/	.
.	.	.	.	.	.	12e/J	.
=296	=296	=296	=296	=296	=296	=296	=296
12E\L]	.	2r	.	(2f#/	p	2b\	.
12D#X\	.	.	.	.	.	.	.
12C#X\J	.	.	.	.	.	.	.
12D#/L	.	.	.	.	.	.	.
12C#/	.	.	.	.	.	.	.
12BB/J	.	.	.	.	.	.	.
=297	=297	=297	=297	=297	=297	=297	=297
4Cn/	.	2r	.	4e/)	.	12c/L	.
.	.	.	.	.	.	12B/	.
.	.	.	.	.	.	12c/J	.
[4C/	.	.	.	4r	.	12e/L	.
.	.	.	.	.	.	12d/	.
.	.	.	.	.	.	12c/J	.
=298	=298	=298	=298	=298	=298	=298	=298
12C/L]	.	2r	.	(2d/	.	2g/	.
12BB/	.	.	.	.	.	.	.
12AA/J	.	.	.	.	.	.	.
12BB/L	.	.	.	.	.	.	.
12AA/	.	.	.	.	.	.	.
12GG/J	.	.	.	.	.	.	.
=299	=299	=299	=299	=299	=299	=299	=299
2C/	.	2r	.	4c/)	.	(>12e/L	.
.	.	.	.	.	.	12d#X/	.
!LO:TX:a:t=cres-:problem:dynamics with extention lines	!LO:HP:a:t=cres-:ext=cd	!	!	!LO:TX:b:t=cres-:problem:dynamics with extention lines	!LO:HP:b:t=cres-:ext=cd	!LO:TX:b:t=cres-:problem:dynamics with extention lines	!LO:HP:b:t=cres-:ext=cd
.	<	.	.	.	<	12e/J	<
.	.	.	.	(>[4e/	.	12g/L	.
.	.	.	.	.	.	12f#/	.
.	.	.	.	.	.	12e/J)	.
=300	=300	=300	=300	=300	=300	=300	=300
2BB/	.	4r	.	4e/]	.	(12g#X/L	.
.	.	.	.	.	.	12f##X/	.
.	.	.	.	.	.	12g#/J	.
.	.	(4G#X/	.	4d/	.	12ee\L	.
.	.	.	.	.	.	12dd#X\	.
.	.	.	.	.	.	12ee\J)	.
=301	=301	=301	=301	=301	=301	=301	=301
2AA/	.	2A/)	.	4c/)	.	(12aa\L	.
.	.	.	.	.	.	12gg#X\	.
.	.	.	.	.	.	12aa\J	.
.	.	.	.	4a/	.	12ccc\L	.
.	.	.	.	.	.	12bb\	.
.	.	.	.	.	.	12ccc\J)	.
=302	=302	=302	=302	=302	=302	=302	=302
2GG/	.	2c\	.	2g/ 2b-X	.	(12eee\L	.
.	.	.	.	.	.	12ddd\	.
.	.	.	.	.	.	12eee\J	.
.	.	.	.	.	.	12ccc\L	.
.	.	.	.	.	.	12ddd\	.
.	[[	.	.	.	[[	12eee\J)	[[
=303	=303	=303	=303	=303	=303	=303	=303
!	!LO:DY:a	!	!	!	!	!	!
(>[4FFn/	ff	[2c\	.	[2fn/ [2a	ff	([2fffn\	ff
12FF/L]	.	.	.	.	.	.	.
12EE/	.	.	.	.	.	.	.
12FF/J)	.	.	.	.	.	.	.
=304	=304	=304	=304	=304	=304	=304	=304
(12AA/L	.	2c\_	.	2f/_ 2a_	.	2fff\_	.
12GG#X/	.	.	.	.	.	.	.
12AA/J)	.	.	.	.	.	.	.
(12C/L	.	.	.	.	.	.	.
12BB/	.	.	.	.	.	.	.
12C/J)	.	.	.	.	.	.	.
=305	=305	=305	=305	=305	=305	=305	=305
[2Fn\	.	2c\_	.	2f/_ 2a_	.	12fff\L]	.
.	.	.	.	.	.	12eee\	.
.	.	.	.	.	.	12fffn\J)	.
.	.	.	.	.	.	(12ccc\L	.
.	.	.	.	.	.	12bb\	.
.	.	.	.	.	.	12ccc\J)	.
=306	=306	=306	=306	=306	=306	=306	=306
2F\]	.	2c\]	.	2f/_ 2a_	.	(12aa\L	.
.	.	.	.	.	.	12gg#X\	.
.	.	.	.	.	.	12aa\J)	.
.	.	.	.	.	.	(12ffn\L	.
.	.	.	.	.	.	12ee\	.
.	.	.	.	.	.	12ff\J)	.
!!LO:LB:g=original
=307	=307	=307	=307	=307	=307	=307	=307
!	!	!	!LO:DY:t=sempre ff	!	!LO:DY:t=sempre ff	!	!LO:DY:t=sempre ff
[2FFn/	.	2A/	ff	12f/L] 12a]	ff	(2cc\	ff
.	.	.	.	12e/	.	.	.
.	.	.	.	12fn/J	.	.	.
.	.	.	.	12a/L	.	.	.
.	.	.	.	12g/	.	.	.
.	.	.	.	12f/J	.	.	.
=308	=308	=308	=308	=308	=308	=308	=308
4FF/]	.	[2c\	.	[2a/	.	[2aa\)	.
4EE/	.	.	.	.	.	.	.
=309	=309	=309	=309	=309	=309	=309	=309
2DD#X/	.	2c\_>	.	2a/_	.	12aa\L]	.
.	.	.	.	.	.	(12gg#X\	.
.	.	.	.	.	.	12aa\J	.
.	.	.	.	.	.	12ccc\L	.
.	.	.	.	.	.	12bb\	.
.	.	.	.	.	.	12aa\J	.
=310	=310	=310	=310	=310	=310	=310	=310
2D#X\	.	12c/L]	.	2a/_	.	[2fff#X\	.
.	.	12B/	.	.	.	.	.
.	.	12A/J	.	.	.	.	.
.	.	12c/L	.	.	.	.	.
.	.	12B/	.	.	.	.	.
.	.	12A/J	.	.	.	.	.
=311	=311	=311	=311	=311	=311	=311	=311
[2E\	.	[2B/	.	4a/]	.	12fff#\L])	.
.	.	.	.	.	.	(12eee\	.
.	.	.	.	.	.	12ddd#X\J	.
.	.	.	.	8g#X/L	.	[4eee\	.
.	.	.	.	8f#/J	.	.	.
=312	=312	=312	=312	=312	=312	=312	=312
12E\L]	.	2B/]	.	2g#X/	.	2eee\_	.
12Fn\	.	.	.	.	.	.	.
12E\J	.	.	.	.	.	.	.
12D\L	.	.	.	.	.	.	.
12E\	.	.	.	.	.	.	.
12D\J	.	.	.	.	.	.	.
=313	=313	=313	=313	=313	=313	=313	=313
4C/	.	4A/	.	4a/	.	12eee\L]	.
.	.	.	.	.	.	12fffn\	.
.	.	.	.	.	.	12eee\J	.
4BB/	.	[4e\	.	4g#X/	.	12ddd\L	.
.	.	.	.	.	.	12eee\	.
.	.	.	.	.	.	12ddd\J	.
=314	=314	=314	=314	=314	=314	=314	=314
4AA/	.	2e\_	.	4a/	.	12ccc\L	.
.	.	.	.	.	.	12ddd\	.
.	.	.	.	.	.	12ccc\J	.
4GG#X/	.	.	.	4dd\	.	12bb\L	.
.	.	.	.	.	.	12ccc\	.
.	.	.	.	.	.	12bb\J	.
=315	=315	=315	=315	=315	=315	=315	=315
2AA/	.	2e\]	.	2cc\	.	12aa\L)	.
.	.	.	.	.	.	12gg#X'\	.
.	.	.	.	.	.	12aa'\J	.
.	.	.	.	.	.	12ccc'\L	.
.	.	.	.	.	.	12bb'\	.
.	.	.	.	.	.	12aa'\J	.
=316	=316	=316	=316	=316	=316	=316	=316
2BB/	.	[2g\	.	2dd\	.	12gg'\L	.
.	.	.	.	.	.	12ff#X'\	.
.	.	.	.	.	.	12gg'\J	.
.	.	.	.	.	.	12dd'\L	.
.	.	.	.	.	.	12gg'\	.
.	.	.	.	.	.	12ffn'\J	.
=317	=317	=317	=317	=317	=317	=317	=317
12C/L	.	2g\]	.	2cc\	.	4ee\	.
12E/	.	.	.	.	.	.	.
12GG/J	.	.	.	.	.	.	.
12C/L	.	.	.	.	.	4r	.
12EE/	.	.	.	.	.	.	.
12GG/J	.	.	.	.	.	.	.
=318	=318	=318	=318	=318	=318	=318	=318
[>2CC/	.	[2c\	fz	[2G/ [2e	fz	[2eee\	fz
!!LO:LB:g=original
=319	=319	=319	=319	=319	=319	=319	=319
!LO:TX:a:t=P:problem:brak zakończenia ligatury	!	!	!	!	!	!	!
2CC/]	.	2c\_	.	2G/_ 2e_	.	12eee\L]	.
.	.	.	.	.	.	(12gg\	.
.	.	.	.	.	.	12ccc\J)	.
.	.	.	.	.	.	12ee'\L	.
.	.	.	.	.	.	12gg'\	.
.	.	.	.	.	.	12cc'\J	.
=320	=320	=320	=320	=320	=320	=320	=320
2CC/	.	2c\]	>	2G/] 2e]	>	12ee\L	>
.	.	.	.	.	.	12g\	.
.	.	.	.	.	.	12cc\J	.
.	.	.	.	.	.	12e/L	.
.	.	.	.	.	.	12g/	.
.	.	.	]	.	]	12G/J	]
=321	=321	=321	=321	=321	=321	=321	=321
[2C/	.	[2G/	p	[2e/	p	(>2c/	.
=322	=322	=322	=322	=322	=322	=322	=322
2C/_	.	2G/_	.	2e/_>	.	2B/	.
=323	=323	=323	=323	=323	=323	=323	=323
2C/_	.	2G/_	.	12e/L]	.	[2A#X/	.
.	.	.	.	(12d#X/	.	.	.
.	.	.	.	12e/J	.	.	.
.	.	.	.	12g/L	.	.	.
.	.	.	.	12f#/	.	.	.
.	.	.	.	12e/J	.	.	.
=324	=324	=324	=324	=324	=324	=324	=324
2C/]	.	2G/]	.	4ee\)	.	2A#/])	.
.	.	.	.	[4e/	.	.	.
=325	=325	=325	=325	=325	=325	=325	=325
!	!	!LO:TX:b:t=poco rallen:dur=8q:ext=ud:problem:tekst with extention lines	!	!LO:TX:b:t=poco rallen:dur=8q:ext=ud:problem:tekst with extention lines	!	!LO:TX:b:t=poco rallen:dur=8q:ext=ud:problem:tekst with extention lines	!
(12BB/L	.	[2G#X/	.	2e/_	.	(>[2B/	.
12AA#X/	.	.	.	.	.	.	.
12BB/J	.	.	.	.	.	.	.
12E\L	.	.	.	.	.	.	.
12D#X\	.	.	.	.	.	.	.
12E\J	.	.	.	.	.	.	.
=326	=326	=326	=326	=326	=326	=326	=326
12G#X\L	.	2G#/]	.	2e/]	.	2B/_	.
12F##X\	.	.	.	.	.	.	.
12G#\J	.	.	.	.	.	.	.
12E\L	.	.	.	.	.	.	.
12D#X\	.	.	.	.	.	.	.
12E\J)	.	.	.	.	.	.	.
=327	=327	=327	=327	=327	=327	=327	=327
[2BB/	.	[2A/	.	[2d#X/	.	12B/L])	.
.	.	.	<	.	<	(12c#X'/	<
.	.	.	.	.	.	12d#X'/J	.
.	.	.	.	.	.	12e'/L	.
.	.	.	.	.	.	12f#'/	.
.	.	.	.	.	.	12g#X'/J	.
=328	=328	=328	=328	=328	=328	=328	=328
2BB/]	.	2A/]	[	2d#/]	[	12a'\L	[
.	.	.	>	.	>	12b'\	.
.	.	.	.	.	.	12cc#X'\J	>
.	.	.	.	.	.	12dd#X'\L	.
.	.	.	.	.	.	12ee'\	.
.	.	.	]	.	]	12ff#'\J)	]]
=329||	=329||	=329||	=329||	=329||	=329||	=329||	=329||
*k[f#c#g#d#]	*	*k[f#c#g#d#]	*	*k[f#c#g#d#]	*	*k[f#c#g#d#]	*
!LO:TX:a:i:t=a tempo	!	!LO:TX:a:i:t=a tempo	!	!LO:TX:a:i:t=a tempo	!	!	!
(2E\	.	(>2B/	p	(>2e/	p	(2gg#\	p
!	!	!	!	!	!	!LO:TX:b:i:t=dol&colon;	!
=330	=330	=330	=330	=330	=330	=330	=330
4E'\	.	4B'/	.	4g#'/	.	4dd#'\	.
4E'\)	.	4B'/)	.	4g#'/)	.	4ee'\)	.
=331	=331	=331	=331	=331	=331	=331	=331
[2BB/	.	[2d#^\	.	[2a/	.	(2ccc#^<\	.
=332	=332	=332	=332	=332	=332	=332	=332
4BB/]	.	4d#\]	.	4a/]	.	4bb\)	.
4r	.	4r	.	4r	.	4r	.
!!LO:LB:g=original
=333	=333	=333	=333	=333	=333	=333	=333
(2E\	.	(>2B/	.	(>2e/	.	(2gg#\	.
=334	=334	=334	=334	=334	=334	=334	=334
4E'\	.	4B'/	.	4g#'/	.	4dd#'\	.
4E'\)	.	4B'/)	.	4g#'/)	.	4ee'\)	.
=335	=335	=335	=335	=335	=335	=335	=335
[2BB^>/	.	[2d#\	.	[2a/	.	(2ccc#^<\	.
=336	=336	=336	=336	=336	=336	=336	=336
4BB/]	.	4d#\]	.	4a/]	.	4bb\)	.
4r	.	4r	.	4r	.	4r	.
=337	=337	=337	=337	=337	=337	=337	=337
[2E\	.	([2e\	.	(>[2g#/	.	(2gg#\	.
.	.	.	<	.	<	.	<
=338	=338	=338	=338	=338	=338	=338	=338
2E\_	.	2e\_	.	2g#/_	.	4aa#X\	.
.	.	.	.	.	.	[4bb\	.
=339	=339	=339	=339	=339	=339	=339	=339
2E\_	.	4e\]	.	2g#/_	[[	2bb\_	[[
.	.	4d#\	[[	.	.	.	.
=340	=340	=340	=340	=340	=340	=340	=340
2E\]	.	2c#X\	>]	4g#/])	>	4bb\]	>
.	.	.	.	(8a#X/L	.	8aa#X\L	.
.	.	.	.	[<8b/J	]]	[8gg#X\J	]]
=341	=341	=341	=341	=341	=341	=341	=341
[2D#\	.	[2d#\)	p	4b\]	.	4gg#\])	.
.	.	.	.	8a#X\L	.	(8ff##X'\L	.
.	.	.	.	8b\J	.	8gg#'\J	.
=342	=342	=342	=342	=342	=342	=342	=342
2D#\]	.	2d#\_	.	4cc#X\	.	4aa#X'\	.
.	.	.	.	4a#X\	.	4ff##X'\	.
=343	=343	=343	=343	=343	=343	=343	=343
4G#\	.	4d#\]	.	4b\)	.	4gg#\)	.
4r	.	4r	.	4r	.	4r	.
=344	=344	=344	=344	=344	=344	=344	=344
(2BB/	.	(>2d#\	>]	[2B/ (>2a	>]	(2bb\	>]
=345	=345	=345	=345	=345	=345	=345	=345
*	*	*	*	*^	*	*	*
!	!	!LO:TX:t=P:problem:mixed beam	!	!	!	!	!	!
4E\)	.	12e\L)	p	4B/]	(>2g#/)	p	2ee\)	p
!	!	!	!	!	!LO:TX:b:i:t=dol&colon;	!	!	!
.	.	12E/	.	.	.	.	.	.
.	.	12F#/J	.	.	.	.	.	.
4r	.	12G#/L	.	4ryy	.	.	.	.
.	.	12F#/	.	.	.	.	.	.
.	.	12E/J	.	.	.	.	.	.
*	*	*	*	*v	*v	*	*	*
=346	=346	=346	=346	=346	=346	=346	=346
2r	.	4B\	.	4d#'/	.	(4g#'/	.
.	.	4r	.	4e'/)	.	4g#'/)	.
=347	=347	=347	=347	=347	=347	=347	=347
12A\L	.	2r	.	(2cc#^<\	.	(>2a^>/	.
12G#\	.	.	.	.	.	.	.
12A\J	.	.	.	.	.	.	.
12c#\L	.	.	.	.	.	.	.
12B\	.	.	.	.	.	.	.
12A\J	.	.	.	.	.	.	.
!!LO:PB:g=original
=348	=348	=348	=348	=348	=348	=348	=348
*	*	*tuplet	*	*	*	*	*
*	*	*Xbrackettup	*	*	*	*	*
!	!	!LO:TUP:a	!	!	!	!	!
4e\	.	12r	.	4b\)	.	4g#/)	.
.	.	12B'\L	.	.	.	.	.
.	.	12c#'\J	.	.	.	.	.
*	*	*Xtuplet	*	*	*	*	*
4r	.	12d#'\L	.	4r	.	4r	.
.	.	12e'\	.	.	.	.	.
.	.	12f#'\J	.	.	.	.	.
=349	=349	=349	=349	=349	=349	=349	=349
!	!	!LO:TX:b:i:t=dol&colon;	!	!	!	!	!
12E\L	.	2g#\	.	(2b\	.	[2eee\	.
12D#\	.	.	.	.	.	.	.
12E\J	.	.	.	.	.	.	.
12G#\L	.	.	.	.	.	.	.
12F#\	.	.	.	.	.	.	.
12E\J	.	.	.	.	.	.	.
=350	=350	=350	=350	=350	=350	=350	=350
4B\	.	(4d#'\	.	2g#/)	.	2eee\]	.
4r	.	4e'\)	.	.	.	.	.
=351	=351	=351	=351	=351	=351	=351	=351
12A\L	.	(2cc#^<\	.	(>2a^>/	.	[2ee\	.
12G#\	.	.	.	.	.	.	.
12A\J	.	.	.	.	.	.	.
12c#\L	.	.	.	.	.	.	.
12B\	.	.	.	.	.	.	.
12A\J	.	.	.	.	.	.	.
=352	=352	=352	=352	=352	=352	=352	=352
4e\	.	4b\)	.	4g#/)	.	12ee\L]	.
.	.	.	.	.	.	12bb\	.
.	.	.	.	.	.	12ccc#\J	.
4r	.	4r	.	4r	.	12ddd#\L	.
.	.	.	.	.	.	12eee\	.
.	.	.	.	.	.	12fff#\J	.
=353	=353	=353	=353	=353	=353	=353	=353
!	!	!	!	!	!	!LO:TX:b:i:t=espres&colon;	!
2r	.	2r	.	2r	.	(2ggg#\	.
=354	=354	=354	=354	=354	=354	=354	=354
2r	.	2r	.	2r	.	4ddd#\	.
.	.	.	.	.	.	4eee\)	.
=355	=355	=355	=355	=355	=355	=355	=355
2E#X\	.	2b\	>]	(2gg#\	>]	(2dddn\	>]
=356	=356	=356	=356	=356	=356	=356	=356
4F#\	.	2a\	.	4ff#\	.	8ccc#\L	.
.	.	.	.	.	.	8gg#\	.
4A\	.	.	.	4cc#\	.	8aa\	.
.	.	.	.	.	.	8ff#\J)	.
=357	=357	=357	=357	=357	=357	=357	=357
2B\	.	2g#\	.	(2b\)	.	4ee\	.
*	*	*	*	*	*	*tuplet	*
!	!	!	!	!	!	!LO:TUP:a	!
.	.	.	.	.	.	(12ee\L	.
.	.	.	.	.	.	12dd#\	.
.	.	.	.	.	.	12ee\J	.
=358	=358	=358	=358	=358	=358	=358	=358
2BB/	.	2d#\	.	2a/	.	4ff#'\)	.
!	!	!	!	!	!	!LO:TUP:a	!
.	.	.	.	.	.	(12ff#\L	.
.	.	.	.	.	.	12ee\	.
.	.	.	.	.	.	12ff#\J	.
=359	=359	=359	=359	=359	=359	=359	=359
*	*	*	*	*tuplet	*	*	*
4E\	.	4e\	.	4g#/)	.	4gg#'\)	.
4r	.	4B/	.	(>12f#/L	.	4r	.
.	.	.	.	12e/	.	.	.
.	.	.	.	12f#/J	.	.	.
*	*	*	*	*Xtuplet	*	*	*
=360	=360	=360	=360	=360	=360	=360	=360
*	*	*	*	*	*	*Xbrackettup	*
!	!	!	!	!	!	!LO:TUP:a	!
2r	.	4e\	.	4g#/)	.	12r	.
.	.	.	.	.	.	(12bb'\L	<
.	.	.	.	.	.	12ccc#'\J	.
*	*	*	*	*	*	*Xtuplet	*
.	.	4r	.	4r	.	12ddd#'\L	.
.	.	.	.	.	.	12eee'\	.
.	.	.	.	.	.	12fff#'\J)	.
=361	=361	=361	=361	=361	=361	=361	=361
2r	.	2r	.	2r	.	(2gggn\	[
!!LO:LB:g=original
=362	=362	=362	=362	=362	=362	=362	=362
2r	.	2r	.	2r	.	4ddd#\	>
.	.	.	.	.	.	4eee\)	]
=363	=363	=363	=363	=363	=363	=363	=363
(2F#\	.	2r	.	(>2a/	.	(4dddn\	>
.	.	.	.	.	.	8ccc#\L	]
.	.	.	.	.	.	8cccn\J	.
=364	=364	=364	=364	=364	=364	=364	=364
4Gn\	>	2r	.	4b/	>	[2bb\	.
8F#\L	.	.	.	8a/L	.	.	.
8E\J	]	.	.	8gn/J)	]]	.	.
=365	=365	=365	=365	=365	=365	=365	=365
2D#X\)	.	2r	.	(>2f#/	.	4bb\])	>
.	.	.	.	.	.	(8aa#X\L	.
.	.	.	.	.	.	8aan\J	]]
=366	=366	=366	=366	=366	=366	=366	=366
4E\	.	4r	.	4gn/	.	[2ggn\	.
4Dn\	.	(>4B/	.	4fn/)	.	.	.
=367	=367	=367	=367	=367	=367	=367	=367
2Cn/	.	2cn/)	.	[2e/	.	4gg\])	.
.	.	.	.	.	.	8ffn\L	.
.	.	.	.	.	.	8ee\J	.
=368	=368	=368	=368	=368	=368	=368	=368
[2CCn/	.	(>4E/	.	2e/_	.	[2eee\	.
!	!	!LO:TX:b:t=poco cres-:ext=cd:problem:dynamics with extention lines	!	!LO:TX:b:t=poco cres-:ext=cd:problem:dynamics with extention lines	!	!LO:TX:b:t=poco cres-:ext=cd:problem:dynamics with extention lines	!LO:HP:b:i:t=poco cres-:ext=cd
.	.	.	<	.	<	.	<
.	.	8D#X/L	.	.	.	.	.
.	.	8E/J	.	.	.	.	.
=369	=369	=369	=369	=369	=369	=369	=369
2CC/]	.	4F#/	.	2e/_	.	2eee\_	.
.	.	8Gn/L	.	.	.	.	.
.	.	8A/J	.	.	.	.	.
=370	=370	=370	=370	=370	=370	=370	=370
2Cn/	.	2A#X/	.	4e/]	.	2eee\_	.
.	.	.	.	(>8f#/L	.	.	.
.	.	.	.	8f##X/J	.	.	.
=371	=371	=371	=371	=371	=371	=371	=371
[2BB/	.	(>[>2B/)	.	[>2g#/	.	4eee\]	.
.	.	.	.	.	.	(8ddd#'\L	[
.	.	.	.	.	.	8ccc#'\J	>
=372	=372	=372	=372	=372	=372	=372	=372
2BB/_	.	4B/]	.	4g#/]	.	[2bb\	.
.	.	8A/L	.	8f#/L	.	.	.
.	.	8G#/J	[[	8e/J	[[	.	]
=373	=373	=373	=373	=373	=373	=373	=373
2BB/_	.	[2A/)	p	[2d#/)	p	4bb\])	p
.	.	.	.	.	.	(8aa\L	.
.	.	.	.	.	.	8gg#\J	.
=374	=374	=374	=374	=374	=374	=374	=374
2BB/]	.	2A/]	.	2d#/]	.	4ff#^<\	.
.	.	.	.	.	.	8gg#\L	.
.	.	.	.	.	.	8ff#\J	.
=375	=375	=375	=375	=375	=375	=375	=375
4E\	.	4G#/	.	4e/	.	12ee\L)	.
.	.	.	.	.	.	12dd#\	.
.	.	.	.	.	.	12ee\J	.
4E\	.	4B/	.	4g#/	.	12gg#\L	.
.	.	.	.	.	.	12ff#\	.
.	.	.	.	.	.	12ee\J	.
=376	=376	=376	=376	=376	=376	=376	=376
4D#\	.	4B/	.	4f#/	.	[2bb\	.
4D#\	.	4B/	.	4f#/	.	.	.
!!LO:LB:g=original
=377	=377	=377	=377	=377	=377	=377	=377
4Dn\	.	4e\	.	4g#/	.	12bb\L]	.
.	.	.	.	.	.	12aa#X\	.
.	.	.	.	.	.	12bb\J	.
4D\	.	4e\	.	4g#/	.	12eee\L	.
.	.	.	.	.	.	12ddd#\	.
.	.	.	.	.	.	12eee\J	.
=378	=378	=378	=378	=378	=378	=378	=378
4C#/	.	4e\	.	4a\	.	4aa\	.
(4BB/	.	(4e#X\	.	(4ddn\	.	[4gg#X\	.
=379	=379	=379	=379	=379	=379	=379	=379
4AA/)	.	4f#\)	.	4cc#\)	.	12gg#\L]	.
.	.	.	.	.	.	12ff#\	.
.	.	.	<	.	<	12ee#X\J	<
4AA/	.	4f#\	.	4cc#\	.	12ff#X\L	.
.	.	.	.	.	.	12aa\	.
.	.	.	.	.	.	12bb\J	[[
=380	=380	=380	=380	=380	=380	=380	=380
4AA/	.	4f#\	[	4a/	[	[2ccc#\	.
4AA#X/	.	[4e\	>]	(4gn/	>]	.	>]
=381	=381	=381	=381	=381	=381	=381	=381
4BB/	.	4e\]	p	4g#X/)	p	12ccc#\L]	p
.	.	.	.	.	.	12bb\	.
.	.	.	.	.	.	12aa\J	.
4BB/	.	4e\	.	4B/ 4g#	.	12gg#\L	.
.	.	.	.	.	.	12ff#\	.
.	.	.	.	.	.	12ee\J	.
=382	=382	=382	=382	=382	=382	=382	=382
*rep	*	*	*	*	*	*	*
4BB/	.	4f#\	.	4B/ 4a	.	12dd#\L	.
.	.	.	.	.	.	12cc#\	.
.	.	.	.	.	.	12b\J	.
4BB/	.	4d#\	.	4B/ 4a	.	12a/L	.
.	.	.	.	.	.	12g#/	.
.	.	.	.	.	.	12f#/J	.
*Xrep	*	*	*	*	*	*	*
=383	=383	=383	=383	=383	=383	=383	=383
4E\	.	4e\	.	4B/ 4g#	.	4e/	.
4E\	.	4e\	.	4B/ 4g#	.	12gg#\L	.
.	.	.	.	.	.	12ff#\	.
.	.	.	.	.	.	12ee\J	.
=384	=384	=384	=384	=384	=384	=384	=384
!	!	!LO:TX:b:t=cres-:problem:dynamics with extention lines	!LO:HP:b:i:t=cres-:ext=cd	!LO:TX:b:t=cres-:problem:dynamics with extention lines	!LO:HP:b:i:t=cres-:ext=cd	!LO:TX:b:t=cres-:problem:dynamics with extention lines	!LO:HP:b:i:t=cres-:ext=cd
*	*	*rep	*	*	*	*	*
4Dn\	.	4e\	<	4g#/	<	2bb\	<
4D\	.	4e\	.	4g#/	.	.	.
*	*	*Xrep	*	*	*	*	*
=385	=385	=385	=385	=385	=385	=385	=385
*	*	*rep	*	*	*	*	*
4C#/	.	4e\	.	4a\	.	12aa\L	.
.	.	.	.	.	.	12gg#\	.
.	.	.	.	.	.	12aa\J	.
4C#/	.	4e\	.	4a\	.	12ccc#\L	.
.	.	.	.	.	.	12bb\	.
.	.	.	.	.	.	12aa\J	.
*	*	*Xrep	*	*	*	*	*
=386	=386	=386	=386	=386	=386	=386	=386
4AA/	.	4a\	.	4cc#\	.	[2eee\	.
4AA/	.	4a\	[[	4cc#\	[[	.	[[
=387	=387	=387	=387	=387	=387	=387	=387
4BB/	.	4g#\	f	4b\	f	12eee\L]	f
.	.	.	.	.	.	12bb\	.
.	.	.	.	.	.	12aa#X\J	.
4BB/	.	4e\	.	4g#/	.	12bb\L	.
.	.	.	.	.	.	12eee\	.
.	.	.	.	.	.	12ggg#\J	.
=388	=388	=388	=388	=388	=388	=388	=388
*	*	*	*	*	*	*8va	*
4BB/	.	4e\	.	4g#/	.	4bbb\	.
(4AA#X/	.	[4e\	.	(4gn^/	.	[4eeee^<\	.
=389	=389	=389	=389	=389	=389	=389	=389
4BB/)	.	12e\L]	.	12g#X/L)	.	4eeee\]	.
.	.	12G#\	.	12e/	.	.	.
.	.	12A\J	.	12f#/J	.	.	.
*	*	*	*	*	*	*X8va	*
!	!	!	!	!	!	!LO:TX:a:t=loco	!
4BB/	.	12B\L	.	12g#/L	.	4ee\	.
.	.	12c#\	.	12a/	.	.	.
.	.	12B\J	.	12g#/J	.	.	.
!!LO:LB:g=original
=390	=390	=390	=390	=390	=390	=390	=390
4BB/	.	12A/L	.	12f#/L	.	2dd#t\	.
.	.	12A/	.	12f#/	.	.	.
.	.	12G#/J	.	12e#X/J	.	.	.
4BB/	.	12A/L	.	12f#/L	.	.	.
.	.	12B/	.	12g#/	.	.	.
.	.	12A/J	.	12f#/J	.	.	.
.	.	.	.	.	.	(16qqcc#/LL	.
.	.	.	.	.	.	16qqdd#/JJ)	.
=391	=391	=391	=391	=391	=391	=391	=391
12E\L	.	4G#/	f	4e/	f	4ee\	f
12D#\	.	.	.	.	.	.	.
12E\J	.	.	.	.	.	.	.
12G#\L	.	4r	.	4r	.	4r	.
12F#\	.	.	.	.	.	.	.
12E\J	.	.	.	.	.	.	.
=392	=392	=392	=392	=392	=392	=392	=392
[2EE/	.	12E/L	.	2r	.	2r	.
.	.	12D#/	.	.	.	.	.
.	.	12E/J	.	.	.	.	.
.	.	12G#/L	.	.	.	.	.
.	.	12F#/	.	.	.	.	.
.	.	12E/J	.	.	.	.	.
=393	=393	=393	=393	=393	=393	=393	=393
2EE/_	.	2e\	.	(12ee\L	.	2r	.
.	.	.	.	12dd#\	.	.	.
.	.	.	.	12ee\J	.	.	.
.	.	.	.	12gg#\L	.	.	.
.	.	.	.	12ff#\	.	.	.
.	.	.	.	12ee\J	.	.	.
=394	=394	=394	=394	=394	=394	=394	=394
2EE/]	.	2g#\	.	2ddn\)	.	12eee\L	.
.	.	.	.	.	.	12ddd#\	.
.	.	.	.	.	.	12eee\J	.
.	.	.	.	.	.	12ggg#\L	.
.	.	.	.	.	.	12fff#\	.
.	.	.	.	.	.	12eee\J	.
=395	=395	=395	=395	=395	=395	=395	=395
[2E\	.	[2e\	.	[2cc#\	.	2aaa\	.
=396	=396	=396	=396	=396	=396	=396	=396
2E\_	.	2e\]	.	2cc#\]	.	12aa\L	.
.	.	.	.	.	.	12gg#\	.
.	.	.	.	.	.	12aa\J	.
.	.	.	.	.	.	12ccc#\L	.
.	.	.	.	.	.	12bb\	.
.	.	.	.	.	.	12aa\J	.
=397	=397	=397	=397	=397	=397	=397	=397
2E\_	.	[2d#\	.	(2b\	.	(12aa\L	.
.	.	.	>	.	>	12gg#\)	>
.	.	.	.	.	.	12ff#'\J	.
.	.	.	.	.	.	(12ff#\L	.
.	.	.	.	.	.	12ee\)	.
.	.	.	.	.	.	12dd#'\J	.
=398	=398	=398	=398	=398	=398	=398	=398
2E\_	.	2d#\]	.	2a\	.	(12dd#\L	.
.	.	.	.	.	.	12cc#\)	.
.	.	.	.	.	.	12b'\J	.
.	.	.	.	.	.	(12a/L	.
.	.	.	]	.	]	12g#/)	.
.	.	.	.	.	.	12f#'/J	]]
=399	=399	=399	=399	=399	=399	=399	=399
12E\L]	.	4e\	p	4g#/)	p	4e/	p
12D#\	.	.	.	.	.	.	.
12E\J	.	.	.	.	.	.	.
12G#\L	.	4r	.	4r	.	4r	.
12F#\	.	.	.	.	.	.	.
12E\J	.	.	.	.	.	.	.
=400	=400	=400	=400	=400	=400	=400	=400
[2EE/	.	12e\L	.	2r	.	2r	.
.	.	12d#\	.	.	.	.	.
.	.	12e\J	.	.	.	.	.
.	.	12g#\L	.	.	.	.	.
.	.	12f#\	.	.	.	.	.
.	.	12e\J	.	.	.	.	.
!!LO:PB:g=original
=401	=401	=401	=401	=401	=401	=401	=401
2EE/_	.	(2dn\	> ]	2g#/	>]	(2ffn\	>]
=402	=402	=402	=402	=402	=402	=402	=402
2EE/_	.	4c#\	.	4a/	.	12ee\L	.
.	.	.	.	.	.	12ff#X\	.
.	.	.	.	.	.	12ee\J	.
.	.	4B/)	.	4g#/	.	12ddn\L	.
.	.	.	.	.	.	12ee\	.
.	.	.	.	.	.	[12dd\J)	.
=403	=403	=403	=403	=403	=403	=403	=403
2EE/_	.	2e\	.	[2a/	.	12dd\L]	.
.	.	.	.	.	.	(12cc#\	.
.	.	.	.	.	.	12b#X\J	.
.	.	.	<	.	<	12cc#\L	<
.	.	.	.	.	.	12ee\	.
.	.	.	.	.	.	12aa\J	.
=404	=404	=404	=404	=404	=404	=404	=404
2EE/_	.	2c#\	.	2a/_	.	12ccc#\L	.
.	.	.	.	.	.	12bb\	.
.	.	.	.	.	.	12aa\J	.
.	.	.	.	.	.	12aa\L	.
.	.	.	.	.	.	12gg#\	.
.	.	.	[	.	[	12ff#\J)	[[
=405	=405	=405	=405	=405	=405	=405	=405
!	!	!	!	!	!	!LO:TUP:a:problem:klamra łukowa	!
2EE/_	.	[2d#\	f >	2a/_	f >	(>12ff#\L	f >
.	.	.	.	.	.	12ee\	.
.	.	.	.	.	.	12dd#\J	.
!	!	!	!	!	!	!LO:TUP:a:problem:klamra łukowa	!
.	.	.	.	.	.	12dd#\L	.
.	.	.	.	.	.	12cc#\	.
.	.	.	.	.	.	12b\J)	.
=406	=406	=406	=406	=406	=406	=406	=406
!	!	!	!	!	!	!LO:TUP:b:problem:klamra łukowa	!
2EE/_	.	2d#\]	.	2a/]	.	(>12b/L	.
.	.	.	.	.	.	12a/	.
.	.	.	.	.	.	12g#/J	.
!	!	!	!	!	!	!LO:TUP:b:problem:klamra łukowa	!
.	.	.	.	.	.	12a/L	.
.	.	.	.	.	.	12g#/	.
.	.	.	]	.	]	12f#/J	]
=407	=407	=407	=407	=407	=407	=407	=407
4EE/]	.	4e\	.	4g#/	.	4e/)	.
!	!LO:DY:a	!	!LO:DY:a	!	!	!	!
8.e\L	f	8.ee\L	f	4r	.	8.eee\L	f
!LO:TX:a:i:t=con fuoco	!	!LO:TX:a:i:t=con fuoco	!	!	!	!LO:TX:b:i:t=con fuoco	!
16d#\Jk	.	16dd#\Jk	.	.	.	16ddd#\Jk	.
=408	=408	=408	=408	=408	=408	=408	=408
12c#\L	.	12cc#\L	.	4r	.	12ccc#\L	.
12B\	.	12b\	.	.	.	12bb\	.
12A\J	.	12a\J	.	.	.	12aa\J	.
12G#\L	.	12g#\L	.	12gg#\L	.	12gg#\L	.
12F#\	.	12f#\	.	12ff#\	.	12ff#\	.
12E\J	.	12e\J	.	12ee\J	.	12ee\J	.
=409	=409	=409	=409	=409	=409	=409	=409
12D#/L	.	12d#\L	.	12dd#\L	.	12dd#\L	.
12C#/	.	12c#\	.	12cc#\	.	12cc#\	.
12BB/J	.	12B\J	.	12b\J	.	12b\J	.
12AA/L	.	12A/L	.	12a/L	.	12a\L	.
12GG#/	.	12G#/	.	12g#/	.	12g#\	.
12FF#/J	.	12F#/J	.	12f#/J	.	12f#\J	.
=410	=410	=410	=410	=410	=410	=410	=410
4EE/	.	4E/	.	4e/	.	4e/	.
(>4GG#/	.	[4E/	sf >	(>4B/	sf >	4dn/	sf >
=411	=411	=411	=411	=411	=411	=411	=411
!	!	!LO:TX:a:t=P:problem:brak dalszej części ligatury	!	!	!	!	!
[>2AA/)	.	2E/_	] p	[>2c#/)	] p	12c#/L	] p
.	.	.	.	.	.	12e/	.
.	.	.	.	.	.	12a/J	.
.	.	.	.	.	.	12cc#\L	.
.	.	.	.	.	.	12ee\	.
.	.	.	.	.	.	12aa\J	.
!!LO:LB:g=original
=412	=412	=412	=412	=412	=412	=412	=412
!LO:TX:a:t=P:problem:zakończenia ligatury na dole	!	!	!	!LO:TX:a:t=P:problem:brak zakończenia ligatury	!	!	!
4AA/]	.	4E/]	.	4c#/]	.	4ccc#\	.
4C#/	.	[4e\	rfz >	(4gn/	rfz >	4A#X/	rfz >
=413	=413	=413	=413	=413	=413	=413	=413
[2BB/	.	2e\_	] p	[2g#X/)	] p	12B/L	] p
.	.	.	.	.	.	12e/	.
.	.	.	.	.	.	12g#/J	.
.	.	.	.	.	.	12b\L	.
.	.	.	.	.	.	12ee\	.
.	.	.	.	.	.	12gg#\J	.
=414	=414	=414	=414	=414	=414	=414	=414
4BB/]	.	4e\]	.	4g#/]	.	12bb\L	.
.	.	.	.	.	.	12bb\	.
.	.	.	.	.	.	12cccn\J	.
4BB/	.	4f#\	.	4B/ 4a	.	12ccc#X\L	.
.	.	.	.	.	.	12dddn\	.
.	.	.	.	.	.	12ddd#X\J	.
=415||	=415||	=415||	=415||	=415||	=415||	=415||	=415||
*k[f#cngndn]	*	*k[f#cngndn]	*	*k[f#cngndn]	*	*k[f#cngndn]	*
!LO:TX:t=P:problem:kolejność znaków F# Cn Gn Dn	!	!LO:TX:t=P:problem:kolejność znaków f# cn gn dn	!	!LO:TX:t=P:problem:kolejność znaków ff# ccn ggn ddn	!	!LO:TX:t=P:problem:kolejność znaków ff# ccn ggn ddn	!
4EE/	.	4e\	.	4B/ 4g	.	4eee\	.
!	!LO:DY:a:rj	!	!LO:DY:a:rj	!	!	!	!
8.e\L	f	8.ee\L	f	4r	.	8.eee\L	f
16d\Jk	.	16dd\Jk	.	.	.	16ddd\Jk	.
=416	=416	=416	=416	=416	=416	=416	=416
12c\L	.	12cc\L	.	4r	.	12ccc\L	.
12B\	.	12b\	.	.	.	12bb\	.
12A\J	.	12a\J	.	.	.	12aa\J	.
12G\L	.	12g\L	.	12gg\L	.	12gg\L	.
12F#\	.	12f#\	.	12ff#\	.	12ff#\	.
12E\J	.	12e\J	.	12ee\J	.	12ee\J	.
=417	=417	=417	=417	=417	=417	=417	=417
12D/L	.	12d\L	.	12dd\L	.	12dd\L	.
12C/	.	12c\	.	12cc\	.	12cc\	.
12BB/J	.	12B\J	.	12b\J	.	12b\J	.
12AA/L	.	12A/L	.	12a/L	.	12a/L	.
12GG/	.	12G/	.	12g/	.	12g/	.
12FF#/J	.	12F#/J	.	12f#/J	.	12f#/J	.
=418	=418	=418	=418	=418	=418	=418	=418
4EE/	.	4E/	.	4e/	.	4e/	.
(4GG#X/	.	(4Fn/	sf >	(4B/	sf >	(4d/	sf >
=419	=419	=419	=419	=419	=419	=419	=419
[>2AA/)	.	[2E/)	] p	[2c/)	] p	12c/L)	] p
.	.	.	.	.	.	12e/	.
.	.	.	.	.	.	12a/J	.
.	.	.	.	.	.	12cc\L	.
.	.	.	.	.	.	12ee\	.
.	.	.	.	.	.	12aa\J	.
=420	=420	=420	=420	=420	=420	=420	=420
4AA/]	.	4E/]	.	4c/]	.	4ccc\	.
4C/	.	[4e\	rfz >	[4gn/	rfz >	(4A#X/	rfz >
=421	=421	=421	=421	=421	=421	=421	=421
[2BB/	.	2e\_	] p	2g/_	] p	12B/L)	] p
.	.	.	.	.	.	12e/	.
.	.	.	.	.	.	12g/J	.
.	.	.	.	.	.	12b\L	.
.	.	.	.	.	.	12ee\	.
.	.	.	.	.	.	12gg\J	.
=422	=422	=422	=422	=422	=422	=422	=422
4BB/]	.	4e\]	.	4g/]	.	12bb\L	.
.	.	.	.	.	.	12bb\	.
.	.	.	.	.	.	12ccc\J	.
4BB/	.	4f#\	.	4B/ 4a	.	12ccc#X\L	.
.	.	.	.	.	.	12ddd\	.
.	.	.	.	.	.	12ddd#X\J	.
!!LO:LB:g=original
=423	=423	=423	=423	=423	=423	=423	=423
4EE/	.	4e\	.	4B/ 4g	.	4eee\	.
[4AA/	.	[4Fn/	rfz >	[4c/	rfz >	[4fn/	rfz >
=424	=424	=424	=424	=424	=424	=424	=424
4AA/]	.	4F/]	]	4c/]	]	4f/]	]
4AA#X/	.	4G/	p	4c#X/	p	4e/	p
=425	=425	=425	=425	=425	=425	=425	=425
*tuplet	*	*tuplet	*	*tuplet	*	*tuplet	*
12BB/L	.	12F#X/L	.	12B/L	.	12d#X/L	.
12BB/	.	12F#/	.	12B/	.	12d#/	.
12BB/J	.	12F#/J	.	12B/J	.	12d#/J	.
4C\	.	4E/	.	4G/	.	4e/	.
=426	=426	=426	=426	=426	=426	=426	=426
4AA/	.	4c'\	.	4e'/	.	4f#X'/	.
4BB/	.	4B'/	.	4d#X'/	.	4b'/	.
=427	=427	=427	=427	=427	=427	=427	=427
4E\	.	4B/	.	4e/	.	4gn'/	.
[4A\	.	[4fn\	rfz >	[4cc\	rfz >	[4ffn\	rfz >
=428	=428	=428	=428	=428	=428	=428	=428
4A\]	.	4f\]	]	4cc\]	]	4ff\]	]
4A#X\	.	4g\	p	4cc#X\	p	4ee\	p
=429	=429	=429	=429	=429	=429	=429	=429
!LO:TUP:a	!	!LO:TUP:a	!	!	!	!LO:TUP:a	!
12B\L	.	12f#X\L	.	12a/L	.	12dd#X\L	.
12B\	.	12f#\	.	12a/	.	12dd#\	.
12B\J	.	12f#\J	.	12a/J	.	12dd#\J	.
*Xtuplet	*	*Xtuplet	*	*Xtuplet	*	*Xtuplet	*
4c'\	.	4e\	.	4g'/	.	4ee'\	.
=430	=430	=430	=430	=430	=430	=430	=430
4A'\	.	4a\	.	4cc'\	.	4ff#X'\	.
4B'\	.	4a\	.	4b'\	.	4dd#X'\	.
=431	=431	=431	=431	=431	=431	=431	=431
4E\	.	4g\	.	4b\	.	4ee\	.
[4AA#X/	.	[4g\	ff	[4cc#X\	ff	[4eee\	ff
=432	=432	=432	=432	=432	=432	=432	=432
!	!	!LO:TX:b:i:t=con fuoco	!	!LO:TX:b:i:t=con fuoco	!	!LO:TX:b:i:t=con fuoco	!
4AA#/]	.	4g\]	.	4cc#\]	.	4eee\]	.
4C#X/	.	[4e\	.	[4g/	.	4aa#X\	.
=433	=433	=433	=433	=433	=433	=433	=433
[2BB/	.	2e\]	.	2g/]	.	8.bb\L	.
.	.	.	.	.	.	16aa\Jk	.
.	.	.	.	.	.	12gg\L	.
.	.	.	.	.	.	12ff#\	.
.	.	.	.	.	.	12ee\J	.
=434	=434	=434	=434	=434	=434	=434	=434
2BB/]	.	4f#\	.	2B/ 2a	.	12dd#X\L	.
.	.	.	.	.	.	12cc\	.
.	.	.	.	.	.	12b\J	.
.	.	4d#X\	.	.	.	12a/L	.
.	.	.	.	.	.	12g/	.
.	.	.	.	.	.	12f#/J	.
=435||	=435||	=435||	=435||	=435||	=435||	=435||	=435||
!	!	!LO:TX:b:i:t=più presto	!	!LO:TX:b:i:t=più presto	!	!LO:TX:b:i:t=più presto	!
12EE/L	.	4e\	.	4B/ 4g	.	4e/	.
12DD#X/	.	.	.	.	.	.	.
12EE/J	.	.	.	.	.	.	.
12GG/L	.	4r	.	4r	.	4r	.
12FF#/	.	.	.	.	.	.	.
12EE/J	.	.	.	.	.	.	.
!!LO:LB:g=original
=436	=436	=436	=436	=436	=436	=436	=436
2BB^>/	.	(2d#X\	.	(>[2B/ 2a	.	12b\L	.
.	.	.	.	.	.	12a#X\	.
.	.	.	.	.	.	12b\J	.
.	.	.	.	.	.	12dd#X\L	.
.	.	.	.	.	.	12cc#X\	.
.	.	.	.	.	.	12b\J	.
=437	=437	=437	=437	=437	=437	=437	=437
12E\L	.	4e\)	.	4B/]) 4g	.	4ee\	.
12D#X\	.	.	.	.	.	.	.
12E\J	.	.	.	.	.	.	.
12G\L	.	4r	.	4r	.	4r	.
12F#\	.	.	.	.	.	.	.
12E\J	.	.	.	.	.	.	.
=438	=438	=438	=438	=438	=438	=438	=438
2B^\	.	((2f#\ 2a	.	(2dd#X\	.	12bb\L	.
.	.	.	.	.	.	12aa#X\	.
.	.	.	.	.	.	12bb\J	.
.	.	.	.	.	.	12ddd#X\L	.
.	.	.	.	.	.	12ccc#X\	.
.	.	.	.	.	.	12bb\J	.
=439	=439	=439	=439	=439	=439	=439	=439
4E\	.	4g\))	.	4ee\)	.	4eee\	.
4r	.	4r	.	4r	.	4r	.
=440	=440	=440	=440	=440	=440	=440	=440
!	!	!	!LO:DY:rj	!	!LO:DY:rj	!	!LO:DY:rj
4BB/	.	4B\ 4f#	ff	4B\ 4f# 4dd#X 4bb	ff	4f#\ 4dd#X 4bb	ff
4r	.	4r	.	4r	.	4r	.
=441	=441	=441	=441	=441	=441	=441	=441
4E\	.	4G/ 4e	sf	4e\ 4b 4gg	sf	4e\ 4b 4gg	sf
!LO:TX:b:t=Fine	!	!	!	!	!	!	!
4EE/	.	4E/	sf	4e/	sf	4e/	sf
==	==	==	==	==	==	==	==
*-	*-	*-	*-	*-	*-	*-	*-
!!!system-decoration: {(<g1>s3,s4)}
!!!RDF**kern: > = above
!!!RDF**kern: < = below
!!!RDF**dynam: rfz = "rf"
!!!AIN: 1 cello 2 empty 1 viola
!!!ENC: Marta Lawrence
!!!END: 2021-04-12
!!!ENC: Marcin Jachim
!!!END: 2021-04-08
